!!!!SEGMENT: pl-wtm--r-1692_stefani-jozef--maj-mazur.krn
!!!cenid: 18xx:2071
!!!COM: Stefani, Józef
!!!COM-rismID: pe30024097
!!!CDT: 1800/04/16-1876/03/19
!!!CNT: Polish
!!!OTL: Maj mazur
!!!PDT: 1856
!!!AGN: Secular; Mazurka
!!!YEC: Copyright 2022 Narodowy Instytut Fryderyka Chopina (https://polishscores.org)
!!!YEM: License CC-BY-4.0 (https://creativecommons.org/licenses/by/4.0)
!!!SMS-siglum: PL-Wtm
!!!SMS-shelfmark: R 1692
!!!SMS-shelfwork: W
!!!SMS-variant:
!!!SMS-altvar:
!!!NIFC-rismSourceID: 1001114716
!!!NIFC-rismChildID: 1001114716
!!!NIFC-islandoraID: pl-wtm:28078
!!!URL-pdf-islandora: https://repozytorium.nifc.pl/islandora/object/pl-wtm%3A28078/datastream/PDF/view
!!!URL-scan: https://polish.musicsources.pl/pl/lokalizacje/galeria/rekopisy/6432 @EN{Scan on Polish Music Sources Website} @PL{Skany w portalu Dziedzictwo Muzyki Polskiej w otwartym dostępie}
!!!IIIF:
!!!ONB-nifc:
!!!AIN: 1 cbass 1 cello 1 clars 2 cor 1 empty 1 fagot 1 flt 1 oboe 1 picco 1 timpa 1 tromp 3 tromt 1 viola 2 violn
!!!key:
**kern	**dynam	**kern	**dynam	**kern	**dynam	**kern	**dynam	**kern	**dynam	**kern	**dynam	**kern	**kern	**dynam	**kern	**dynam	**kern	**dynam	**kern	**dynam	**kern	**dynam	**kern	**dynam	**kern	**dynam	**kern	**dynam	**kern	**dynam	**kern	**kern	**dynam
*part18	*	*part17	*	*part16	*	*part15	*	*part14	*	*part13	*	*part12	*part11	*	*part10	*	*part9	*	*part8	*	*part7	*	*part6	*	*part5	*	*part4	*	*part3	*	*part2	*part1	*
*staff18	*	*staff17	*	*staff16	*	*staff15	*	*staff14	*	*staff13	*	*staff12	*staff11	*	*staff10	*	*staff9	*	*staff8	*	*staff7	*	*staff6	*	*staff5	*	*staff4	*	*staff3	*	*staff2	*staff1	*
*Icbass	*	*Icello	*	*Iviola	*	*Ivioln	*	*Ivioln	*	*Iempty	*	*Itimpa	*Itromt	*	*Itromt	*	*Itromt	*	*Itromp	*	*Ifagot	*	*Icor	*	*Icor	*	*Iclars	*	*Ioboe	*	*Ipicco	*Iflt	*
*I"C:Basſi	*	*I"Violoncelli	*	*I"Viole	*	*I"Violini	*	*I"Violini	*	*I"Banda	*	*I"Timpani d. a.	*I"Tromboni	*	*I"Tromboni	*	*I"Tromboni	*	*I"Trombe in C	*	*I"Fagotti	*	*I"Corni in C	*	*I"Corni in d.	*	*I"Clarinetti in a	*	*I"Oboe	*	*I"Picolo	*I"Flauto	*
*I'cb	*	*I'vlc	*	*I'Vla	*	*I'vl II	*	*I'vl I	*	*I'Banda	*	*I'timp	*I'trb	*	*I'trb	*	*I'trb	*	*I'tr in C	*	*I'fag	*	*I'cor in C	*	*I'cor in D	*	*I'cl in A	*	*I'ob	*	*I'fl. picc	*I'fl	*
*clefF4	*	*clefF4	*	*clefC3	*	*clefG2	*	*clefG2	*	*clefF4	*	*clefF4	*clefF4	*	*clefC4	*	*clefC3	*	*clefG2	*	*clefF4	*	*clefG2	*	*clefG2	*	*clefG2	*	*clefG2	*	*clefG2	*clefG2	*
*ITrd0c0	*	*	*	*	*	*	*	*	*	*ITrd0c0	*	*	*	*	*	*	*	*	*	*	*	*	*ITrd0c0	*	*ITrd6c10	*	*ITrd2c3	*	*	*	*ITrd0c0	*	*
*k[f#c#]	*	*k[f#c#]	*	*k[f#c#]	*	*k[f#c#]	*	*k[f#c#]	*	*k[f#c#]	*	*k[f#c#]	*k[f#c#]	*	*k[f#c#]	*	*k[f#c#]	*	*k[f#c#]	*	*k[f#c#]	*	*k[f#c#]	*	*k[f#c#]	*	*k[f#c#]	*	*k[f#c#]	*	*k[f#c#]	*k[f#c#]	*
*G:	*	*G:	*	*G:	*	*G:	*	*G:	*	*G:	*	*G:	*G:	*	*G:	*	*G:	*	*G:	*	*G:	*	*G:	*	*G:	*	*G:	*	*G:	*	*G:	*G:	*
*M3/8	*	*M3/8	*	*M3/8	*	*M3/8	*	*M3/8	*	*M3/8	*	*M3/8	*M3/8	*	*M3/8	*	*M3/8	*	*M3/8	*	*M3/8	*	*M3/8	*	*M3/8	*	*M3/8	*	*M3/8	*	*M3/8	*M3/8	*
*>[A,B,B,C,C,D,D1,D,D2]	*	*	*	*	*	*	*	*	*	*	*	*	*	*	*	*	*	*	*	*	*	*	*	*	*	*	*	*	*	*	*	*	*
=1	=1	=1	=1	=1	=1	=1	=1	=1	=1	=1	=1	=1	=1	=1	=1	=1	=1	=1	=1	=1	=1	=1	=1	=1	=1	=1	=1	=1	=1	=1	=1	=1	=1
*>A	*	*	*	*	*	*	*	*	*	*	*	*	*	*	*	*	*	*	*	*	*	*	*	*	*	*	*	*	*	*	*	*	*
*	*	*	*	*	*	*	*	*	*	*^	*	*	*	*	*	*	*	*	*	*	*	*	*	*	*	*	*	*	*	*	*	*	*
!	!	!	!	!	!	!	!	!	!	!	!	!	!	!	!	!	!	!	!	!	!	!	!	!LO:SIC:v:t=brak oznaczeń tonacji	!	!	!	!	!	!	!	!	!	!>>>>>>>>>>
!	!	!	!	!	!	!LO:TX:a:t=Unis	!	!	!	!	!	!	!	!	!	!	!	!	!	!	!	!	!	!	!	!	!	!	!	!	!	!	!LO:TX:a:t=a.	!
8D^<\L	sf	4.ryy	.	8F#^/L	sf	16.d^/LLyy	.	16.d^/LL	.	8G/	8C#\	sf	8D/	8F#\ 8D\	sf	8A/	.	8d\	sf	4.r	.	8D/L 8DD/	sf	4.r	.	4.r	.	4.r	.	4.r	.	4.r	4.r	.
.	.	.	.	.	.	32f#/JJkyy	.	32f#/JJk	.	.	.	.	.	.	.	.	.	.	.	.	.	.	.	.	.	.	.	.	.	.	.	.	.	.
8G\	.	.	.	8G/	.	8B/Lyy	.	8B/L	.	8r	4ryy	.	8r	8r	.	8r	.	8r	.	.	.	8G/ 8GG/	.	.	.	.	.	.	.	.	.	.	.	.
8A\J	.	.	.	8A/J	.	8c#t/Jyy	.	8c#t/J	.	8r	.	.	8D/	8G\ 8AA\	.	8A/	.	8c#\	.	.	.	8A/J 8AA/	.	.	.	.	.	.	.	.	.	.	.	.
=2	=2	=2	=2	=2	=2	=2	=2	=2	=2	=2	=2	=2	=2	=2	=2	=2	=2	=2	=2	=2	=2	=2	=2	=2	=2	=2	=2	=2	=2	=2	=2	=2	=2	=2
*	*	*	*	*rep	*	*	*	*	*	*	*	*	*rep	*rep	*	*rep	*	*rep	*	*	*	*rep	*	*	*	*	*	*	*	*	*	*	*	*
8D^<\L	sf	4.ryy	.	8F#^/L	sf	16.d/LLyy	.	16.d/LL	.	8G/	8C#\	.	8D/	8F#\ 8D\	sf	8A/	.	8d\	sf	4.r	.	8D/L 8DD/	sf	4.r	.	4.r	.	4.r	.	4.r	.	4.r	4.r	.
.	.	.	.	.	.	32f#/JJkyy	.	32f#/JJk	.	.	.	.	.	.	.	.	.	.	.	.	.	.	.	.	.	.	.	.	.	.	.	.	.	.
8G\	.	.	.	8G/	.	8B/Lyy	.	8B/L	.	8r	4ryy	.	8r	8r	.	8r	.	8r	.	.	.	8G/ 8GG/	.	.	.	.	.	.	.	.	.	.	.	.
8A\J	.	.	.	8A/J	.	8c#t/Jyy	.	8c#t/J	.	8r	.	.	8D/	8G\ 8AA\	.	8A/	.	8c#\	.	.	.	8A/J 8AA/	.	.	.	.	.	.	.	.	.	.	.	.
*	*	*	*	*Xrep	*	*	*	*	*	*	*	*	*Xrep	*Xrep	*	*Xrep	*	*Xrep	*	*	*	*Xrep	*	*	*	*	*	*	*	*	*	*	*	*
=3	=3	=3	=3	=3	=3	=3	=3	=3	=3	=3	=3	=3	=3	=3	=3	=3	=3	=3	=3	=3	=3	=3	=3	=3	=3	=3	=3	=3	=3	=3	=3	=3	=3	=3
16.D\LL	.	4.ryy	.	16.F#/	.	16.d/LLyy	.	16.d/LL	.	8G/	8C#\	.	8D/	8F#\ 8D\	.	8A/	.	8d\	.	16.d/LL	.	16.D/LL 16.DD/	.	4.r	.	4.r	.	4.r	.	4.r	.	4.r	4.r	.
32F#\JJk	.	.	.	32r	.	32f#/JJkyy	.	32f#/JJk	.	.	.	.	.	.	.	.	.	.	.	32f#/JJk	.	32F#/JJk	.	.	.	.	.	.	.	.	.	.	.	.
8.A\L	.	.	.	8.A/L	.	8.a/Lyy	.	8.a/L	.	8r	4ryy	.	8r	8r	.	8r	.	8r	.	8.a/L	.	8.A/L	.	.	.	.	.	.	.	.	.	.	.	.
.	.	.	.	.	.	.	.	.	.	8r	.	.	8r	8r	.	8r	.	8r	.	.	.	.	.	.	.	.	.	.	.	.	.	.	.	.
16G#X\Jk	.	.	.	16G#X/Jk	.	16g#X/Jkyy	.	16g#X/Jk	.	.	.	.	.	.	.	.	.	.	.	16g#X/Jk	.	16G#X/Jk	.	.	.	.	.	.	.	.	.	.	.	.
*	*	*	*	*	*	*	*	*	*	*v	*v	*	*	*	*	*	*	*	*	*	*	*	*	*	*	*	*	*	*	*	*	*	*	*
=4	=4	=4	=4	=4	=4	=4	=4	=4	=4	=4	=4	=4	=4	=4	=4	=4	=4	=4	=4	=4	=4	=4	=4	=4	=4	=4	=4	=4	=4	=4	=4	=4	=4
(16B\LL	.	4.ryy	.	(16B/LL	.	(16b/LLyy	.	(16b/LL	.	4.r	.	4.r	4.r	.	4.r	.	4.r	.	16b/LL	.	(16B/LL	.	4.r	.	4.r	.	4.r	.	4.r	.	4.r	4.r	.
16A\JJ)	.	.	.	16A/JJ)	.	16a/JJ)yy	.	16a/JJ)	.	.	.	.	.	.	.	.	.	.	16a/JJ	.	16A/JJ)	.	.	.	.	.	.	.	.	.	.	.	.
4F#\	.	.	.	4F#'/	.	4f#'/yy	.	4f#'/	.	.	.	.	.	.	.	.	.	.	4f#'/	.	4F#/	.	.	.	.	.	.	.	.	.	.	.	.
=5	=5	=5	=5	=5	=5	=5	=5	=5	=5	=5	=5	=5	=5	=5	=5	=5	=5	=5	=5	=5	=5	=5	=5	=5	=5	=5	=5	=5	=5	=5	=5	=5	=5
*	*	*	*	*	*	*	*	*	*	*^	*	*	*	*	*	*	*	*	*	*	*	*	*	*	*	*	*^	*	*	*	*	*	*
.	.	.	.	.	.	.	.	(8qaa/	.	.	.	.	.	.	.	.	.	.	.	8qa/	.	.	.	.	.	.	.	(8qa/	.	.	.	.	(8qaa/	.	.
8C#X/	.	4.ryy	.	8r	.	8r	.	16.gg\LL)	.	8r	4ryy	.	8r	8r	.	8r	.	8r	.	16.g/LL	.	8A\ 8C#X\	.	8r	.	8r	.	16.g/LL)	4.r	.	4.ee\ 4.a\	.	16.gg\LL)	4.r	.
.	.	.	.	.	.	.	.	32ff#\JJk	.	.	.	.	.	.	.	.	.	.	.	32f#/JJk	.	.	.	.	.	.	.	32f#/JJk	.	.	.	.	32ff#\JJk|	.	.
8r	.	.	.	8e\L 8A\	.	8g/L 8A/	.	8gg\L	.	8r	.	.	8r	8r	.	8r	.	8r	.	8g/L	.	8r	.	8ee\L 8cc#X\	.	8g\L 8A\	.	8g/L	.	.	.	.	8gg\L|	.	.
8C#^/	.	.	.	8e\J 8A^\	.	8g/J 8A/	.	8ee\J 8a^<\	.	8G/	8C#\	.	8AA/	8A\ 8AA\	.	8c#^\	.	8e\	.	8e/J	.	8A\ 8C#^\	.	8ee\J 8cc#^<\	.	8g\J 8A^<\	.	8e/J	.	.	.	.	8ee\J|	.	.
!!LO:PB:g=original
=6	=6	=6	=6	=6	=6	=6	=6	=6	=6	=6	=6	=6	=6	=6	=6	=6	=6	=6	=6	=6	=6	=6	=6	=6	=6	=6	=6	=6	=6	=6	=6	=6	=6	=6	=6
*	*	*	*	*	*	*	*	*^	*	*	*	*	*	*	*	*	*	*	*	*	*	*	*	*^	*	*	*	*	*	*	*	*	*	*	*
*	*	*	*	*	*	*	*	*	*	*	*	*	*	*	*	*	*	*	*	*	*Xtuplet	*	*	*	*	*	*	*	*	*Xtuplet	*	*	*	*	*Xtuplet	*	*
!	!	!	!	!	!	!	!	!LO:TUP:a:problem=klamra łukowa	!	!	!	!	!	!	!	!	!	!	!	!	!LO:TUP:a:problem=klamra łukowa	!	!	!	!	!	!	!	!	!LO:TUP:a:problem=klamra łukowa	!	!	!	!	!LO:TUP:a:problem=klamra łukowa	!	!
8D\	.	4.ryy	.	8r	.	8r	.	(24ff#\LL 24a\	24d\	.	8G/	8C#\	.	8D/	8A\ 8D\	.	8d\	.	8f#\	.	24f#'/LL	.	8A\ 8D\	.	8r	8r	.	8r	.	(<24f#/LL	8r	.	8r	.	(24ff#\LL	4.r	.
.	.	.	.	.	.	.	.	24gg)\	24ryy	.	.	.	.	.	.	.	.	.	.	.	(24g/	.	.	.	.	.	.	.	.	24g/)	.	.	.	.	24gg\)	.	.
.	.	.	.	.	.	.	.	24bb'\JJ	24ryy	.	.	.	.	.	.	.	.	.	.	.	24b/JJ)	.	.	.	.	.	.	.	.	24b'</JJ	.	.	.	.	24bb'\JJ	.	.
8r	.	.	.	8d\L	.	8f#/L 8A/	.	8aa'\L	4ryy	.	8r	8ryy	.	8r	8r	.	8r	.	8r	.	8a/L 8f#/	.	8r	.	8dd/L	8dd\L	.	8f#\L 8A\	.	8a/L 8f#/	4ryy	.	8aa\L 8ff#\	.	8aa\L	.	.
8D\	.	.	.	8d\J	.	8f#/J 8A/	.	8ff#'\J	.	.	8G/	8C#\	.	8D/	8A\ 8D\	.	8d\	.	8f#\	.	8f#/J 8d/	.	8A\ 8D\	.	8dd/J	8dd\J	.	8f#\J 8A\	.	8f#/J 8d/	.	.	8ff#\J 8dd\	.	8ff#\J	.	.
*	*	*	*	*	*	*	*	*v	*v	*	*	*	*	*	*	*	*	*	*	*	*	*	*	*	*v	*v	*	*	*	*v	*v	*	*	*	*	*	*
*	*	*	*	*	*	*	*	*	*	*v	*v	*	*	*	*	*	*	*	*	*	*	*	*	*	*	*	*	*	*	*	*	*	*	*
=7	=7	=7	=7	=7	=7	=7	=7	=7	=7	=7	=7	=7	=7	=7	=7	=7	=7	=7	=7	=7	=7	=7	=7	=7	=7	=7	=7	=7	=7	=7	=7	=7	=7
*	*	*	*	*	*	*	*	*	*	*	*	*	*	*	*	*	*	*	*	*	*	*	*	*	*^	*	*	*	*^	*	*	*	*
.	.	.	.	.	.	.	.	8qff#/	.	.	.	.	.	.	.	.	.	.	8qf#/	.	.	.	.	.	.	.	.	.	.	.	.	.	8qff#/	(8qfff#/	.
8E\L	.	4.ryy	.	8r	.	8r	.	16.ee\LL	.	4.r	.	4.r	8E\	.	8B\	.	8g#X\	.	16.e/LL	.	8d\ 8E\	.	4.ee\ 4.b\	.	4.e/	4.d\	.	4.g#/ 4.d/	.	16.ee/LL	4.b\	.	16.ee\LL	16.eee\LL)	.
.	.	.	.	.	.	.	.	32dd#X\JJk	.	.	.	.	.	.	.	.	.	.	32d#X/JJk	.	.	.	.	.	.	.	.	.	.	32dd#X/JJk	.	.	32dd#X\JJk	32ddd#X\JJk|	.
8r	.	.	.	8e\L 8d\	.	8g#X/L 8B/	.	8ee\L	.	.	.	.	8r	.	8r	.	8r	.	8e/L	.	8r	.	.	.	.	.	.	.	.	8ee/L	.	.	8ee\L	8eee\L|	.
8E\J	.	.	.	8e\J 8d\	.	8g#/J 8B/	.	8b\J	.	.	.	.	8E\	.	8B\	.	8g#\	.	8b/J 8B/	.	8d\ 8E\	.	.	.	.	.	.	.	.	8b/J	.	.	8b\J	8bb\J|	.
=8	=8	=8	=8	=8	=8	=8	=8	=8	=8	=8	=8	=8	=8	=8	=8	=8	=8	=8	=8	=8	=8	=8	=8	=8	=8	=8	=8	=8	=8	=8	=8	=8	=8	=8	=8
*	*	*	*	*	*	*	*	*	*	*^	*	*	*	*	*	*	*	*	*	*	*	*	*	*	*	*	*	*	*	*	*	*	*	*	*
*	*	*	*	*	*	*	*	*	*	*	*	*	*	*	*	*	*	*	*	*	*	*	*	*	*	*	*	*	*	*	*Xtuplet	*	*	*	*Xtuplet	*
!	!	!	!	!	!	!	!	!LO:TUP:a:problem=klamra łukowa	!	!	!	!	!	!	!	!	!	!	!	!LO:TUP:a:problem=klamra łukowa	!	!	!	!	!	!	!	!	!	!	!LO:TUP:a:problem=klamra łukowa	!	!	!LO:TUP:a:problem=klamra łukowa	!LO:TX:a:t=b.	!
16E\	.	4.ryy	.	16e\ 16d\	.	16g#X/ 16B/	.	24b'\LL	.	8r	8ryy	.	8r	16E\	.	16B\	.	16g#X\	.	24b'/LL	.	16d\ 16E\	.	16ee\ 16b\	.	16e/	16d\	.	16g/ 16d/	.	24b/LL	16b\	.	24b'\LL	24bb'\LL	.
.	.	.	.	.	.	.	.	(24dd\	.	.	.	.	.	.	.	.	.	.	.	(24dd/	.	.	.	.	.	.	.	.	.	.	24dd/	.	.	(24dd\	(24ddd\	.
16r	.	.	.	16r	.	16r	.	.	.	.	.	.	.	16r	.	16r	.	16r	.	.	.	16r	.	16r	.	16r	16ryy	.	16r	.	.	16r	.	.	.	.
.	.	.	.	.	.	.	.	24cc#\JJ)	.	.	.	.	.	.	.	.	.	.	.	24cc#/JJ)	.	.	.	.	.	.	.	.	.	.	24cc#/JJ	.	.	24cc#\JJ)	24ccc#\JJ)	.
16.A\LL	.	.	.	8e\ 8A\	.	16.a/LL 16.c#/	.	16.a/	.	8G/	8C#\	.	8AA/	8A\ 8AA\	.	8c#\	.	8a\	.	8a/	.	8c#\ 8A\	.	8ee\ 8cc#X\	.	8e/ 8A/	4ryy	.	8a/ 8c#/	.	8a/	8a\	.	8a/	8aa\	.
32G\K	.	.	.	.	.	32g#/K	.	32g/KLL	.	.	.	.	.	.	.	.	.	.	.	.	.	.	.	.	.	.	.	.	.	.	.	.	.	.	.	.
16.F#\	.	.	.	8r	.	16.f#/	.	16.f#/	.	8r	8r	.	8r	8r	.	8r	.	8r	.	8r	.	8r	.	8r	.	8r	.	.	8r	.	8r	8ryy	.	8r	8r	.
32E\JJk	.	.	.	.	.	32e/JJk	.	32e/JJk	.	.	.	.	.	.	.	.	.	.	.	.	.	.	.	.	.	.	.	.	.	.	.	.	.	.	.	.
*	*	*	*	*	*	*	*	*	*	*	*	*	*	*	*	*	*	*	*	*	*	*	*	*	*	*v	*v	*	*	*	*v	*v	*	*	*	*
=9	=9	=9	=9	=9	=9	=9	=9	=9	=9	=9	=9	=9	=9	=9	=9	=9	=9	=9	=9	=9	=9	=9	=9	=9	=9	=9	=9	=9	=9	=9	=9	=9	=9	=9
!	!	!	!	!	!	!LO:TX:a:t=Unis	!	!	!	!	!	!	!	!	!	!	!	!	!	!	!	!	!	!	!	!	!	!	!	!	!	!	!LO:TX:a:t=a.	!
8D^<\L	sf	4.ryy	.	8F#^/L	sf	16.d/LLyy	.	16.d/LL	.	8G/	8C#\	sf	8D/	8F#\ 8D\	sf	8A/	.	8d\	sf	4.r	.	8D/L 8DD/	sf	4.r	.	4.r	.	4.r	.	4.r	.	4.r	4.r	.
.	.	.	.	.	.	32f#/JJkyy	.	32f#/JJk	.	.	.	.	.	.	.	.	.	.	.	.	.	.	.	.	.	.	.	.	.	.	.	.	.	.
8G\	.	.	.	8G/	.	8B/Lyy	.	8B/L	.	8r	4ryy	.	8r	8r	.	8r	.	8r	.	.	.	8G/ 8GG/	.	.	.	.	.	.	.	.	.	.	.	.
8A\J	.	.	.	8A/J	.	8c#t/Jyy	.	8c#t/J	.	8r	.	.	8D/	8G\ 8AA\	.	8A/	.	8c#\	.	.	.	8A/J 8AA/	.	.	.	.	.	.	.	.	.	.	.	.
=10	=10	=10	=10	=10	=10	=10	=10	=10	=10	=10	=10	=10	=10	=10	=10	=10	=10	=10	=10	=10	=10	=10	=10	=10	=10	=10	=10	=10	=10	=10	=10	=10	=10	=10
*	*	*	*	*rep	*	*	*	*	*	*	*	*	*rep	*rep	*	*rep	*	*rep	*	*	*	*rep	*	*	*	*	*	*	*	*	*	*	*	*
8D^<\L	sf	4.ryy	.	8F#^/L	sf	16.d/LLyy	.	16.d/LL	.	8G/	8C#\	.	8D/	8F#\ 8D\	sf	8A/	.	8d\	sf	4.r	.	8D/L 8DD/	sf	4.r	.	4.r	.	4.r	.	4.r	.	4.r	4.r	.
.	.	.	.	.	.	32f#/JJkyy	.	32f#/JJk	.	.	.	.	.	.	.	.	.	.	.	.	.	.	.	.	.	.	.	.	.	.	.	.	.	.
8G\	.	.	.	8G/	.	8B/Lyy	.	8B/L	.	8r	4ryy	.	8r	8r	.	8r	.	8r	.	.	.	8G/ 8GG/	.	.	.	.	.	.	.	.	.	.	.	.
8A\J	.	.	.	8A/J	.	8c#t/Jyy	.	8c#t/J	.	8r	.	.	8D/	8G\ 8AA\	.	8A/	.	8c#\	.	.	.	8A/J 8AA/	.	.	.	.	.	.	.	.	.	.	.	.
*	*	*	*	*Xrep	*	*	*	*	*	*	*	*	*Xrep	*Xrep	*	*Xrep	*	*Xrep	*	*	*	*Xrep	*	*	*	*	*	*	*	*	*	*	*	*
=11	=11	=11	=11	=11	=11	=11	=11	=11	=11	=11	=11	=11	=11	=11	=11	=11	=11	=11	=11	=11	=11	=11	=11	=11	=11	=11	=11	=11	=11	=11	=11	=11	=11	=11
16.D\LL	.	4.ryy	.	16.F#/	.	16.d/LLyy	.	(16.d/LL	.	8G/	8C#\	.	8D/	8F#\ 8D\	.	8A/	.	8d\	.	16.d/LL	.	16.D/LL 16.DD/	.	4.r	.	4.r	.	4.r	.	4.r	.	4.r	4.r	.
32F#\JJk	.	.	.	32r	.	32f#/JJkyy	.	32f#/JJk)	.	.	.	.	.	.	.	.	.	.	.	32f#/JJk	.	32F#/JJk	.	.	.	.	.	.	.	.	.	.	.	.
8.A\L	.	.	.	8.A/L	.	8.a/Lyy	.	8.a/L	.	8r	4ryy	.	8r	8r	.	8r	.	8r	.	8.a/L	.	8.A/L	.	.	.	.	.	.	.	.	.	.	.	.
.	.	.	.	.	.	.	.	.	.	8r	.	.	8r	8r	.	8r	.	8r	.	.	.	.	.	.	.	.	.	.	.	.	.	.	.	.
16G#X\Jk	.	.	.	16G#X/Jk	.	16g#X/Jkyy	.	16g#X/Jk	.	.	.	.	.	.	.	.	.	.	.	16g#X/Jk	.	16G#X/Jk	.	.	.	.	.	.	.	.	.	.	.	.
*	*	*	*	*	*	*	*	*	*	*v	*v	*	*	*	*	*	*	*	*	*	*	*	*	*	*	*	*	*	*	*	*	*	*	*
=12	=12	=12	=12	=12	=12	=12	=12	=12	=12	=12	=12	=12	=12	=12	=12	=12	=12	=12	=12	=12	=12	=12	=12	=12	=12	=12	=12	=12	=12	=12	=12	=12	=12
(16B\LL	.	4.ryy	.	(16B/LL	.	(16b/LLyy	.	(16b/LL	.	4.r	.	4.r	4.r	.	4.r	.	4.r	.	(16b/LL	.	(>16B/LL	.	4.r	.	4.r	.	4.r	.	4.r	.	4.r	4.r	.
16A\JJ)	.	.	.	16A/JJ)	.	16a/JJ)yy	.	16a/JJ)	.	.	.	.	.	.	.	.	.	.	16a/JJ	.	16A/JJ)	.	.	.	.	.	.	.	.	.	.	.	.
4F#\	.	.	.	4F#'/	.	4f#'/yy	.	4f#'/	.	.	.	.	.	.	.	.	.	.	4f#'/)	.	4F#/	.	.	.	.	.	.	.	.	.	.	.	.
=13	=13	=13	=13	=13	=13	=13	=13	=13	=13	=13	=13	=13	=13	=13	=13	=13	=13	=13	=13	=13	=13	=13	=13	=13	=13	=13	=13	=13	=13	=13	=13	=13	=13
*	*	*	*	*	*	*	*	*	*	*^	*	*	*	*	*	*	*	*	*	*	*	*	*	*	*	*	*^	*	*	*	*	*	*
.	.	.	.	.	.	.	.	(8qaa/	.	.	.	.	.	.	.	.	.	.	.	8qa/	.	.	.	.	.	.	.	(8qa/	.	.	.	.	(8qaa/	.	.
8C#X/	.	4.ryy	.	8r	.	8r	.	16.gg\LL)	.	8r	4ryy	.	8r	8r	.	8r	.	8r	.	16.g/LL	.	8A\ 8C#X\	.	8r	.	8r	.	16.g/LL)	4.r	.	4.ee\ 4.a\	.	16.gg\LL)	4.r	.
.	.	.	.	.	.	.	.	32ff#'\JJk	.	.	.	.	.	.	.	.	.	.	.	32f#/JJk	.	.	.	.	.	.	.	32f#/JJk	.	.	.	.	32ff#\JJk|	.	.
8r	.	.	.	8e\L 8A\	.	8gyy/L 8A/yy	.	8gg'\L	.	8r	.	.	8r	8r	.	8r	.	8r	.	8g/L	.	8r	.	8ee\L 8cc#X\	.	8g\L 8A\	.	8g/L	.	.	.	.	8gg\L|	.	.
8C#^/	.	.	.	8e\J 8A^\	.	8gyy/J 8A/yy	.	8ee'\J	.	8G/	8C#\	.	8AA/	8A\ 8AA\	.	8c#\	.	8e^\	.	8e/J	.	8A\ 8C#^<\	.	8ee\J 8cc#^<\	.	8g\J 8A^<\	.	8e/J	.	.	.	.	8ee\J|	.	.
!!LO:LB;g=original
=14	=14	=14	=14	=14	=14	=14	=14	=14	=14	=14	=14	=14	=14	=14	=14	=14	=14	=14	=14	=14	=14	=14	=14	=14	=14	=14	=14	=14	=14	=14	=14	=14	=14	=14	=14
*	*	*	*	*	*	*	*	*^	*	*	*	*	*	*	*	*	*	*	*	*	*	*	*	*^	*	*	*	*	*	*	*	*	*	*	*
!	!	!	!	!	!	!	!	!LO:TUP:a:problem=klamra łukowa	!	!	!	!	!	!	!	!	!	!	!	!	!LO:TUP:a:problem=klamra łukowa	!	!	!	!	!	!	!	!	!LO:TUP:a:problem=klamra łukowa	!	!	!	!	!LO:TUP:a:problem=klamra łukowa	!	!
8D\	.	4.ryy	.	8r	.	8ryy	.	(24ff#\LL 24a\	24d\	.	8G/	8C#\	.	8D/	8A\ 8D\	.	8d\	.	8f#\	.	24f#'/LL	.	8A\ 8D\	.	8r	8r	.	8r	.	(<24f#/LL	8r	.	8r	.	(24ff#\LL	4.r	.
.	.	.	.	.	.	.	.	24gg\)	24ryy	.	.	.	.	.	.	.	.	.	.	.	(24g/	.	.	.	.	.	.	.	.	24g/)	.	.	.	.	24gg\)	.	.
.	.	.	.	.	.	.	.	24bb'\JJ	24ryy	.	.	.	.	.	.	.	.	.	.	.	24b/JJ)	.	.	.	.	.	.	.	.	24b'</JJ	.	.	.	.	24bb'\JJ	.	.
8r	.	.	.	8d\L	.	8f#yy/L 8A/y	.	8aa\L 8a\	4ryy	.	8r	8ryy	.	8r	8r	.	8r	.	8r	.	8a/L 8f#/	.	8r	.	8dd/L	8dd\L	.	8f#\L 8A\	.	8a/L 8f#/	4ryy	.	8aa\L 8ff#\	.	8aa\L	.	.
8D\	.	.	.	8d\J	.	8f#yy/J 8A/y	.	8ff#\J 8a\	.	.	8G/	8C#\	.	8D/	8A\ 8D\	.	8d\	.	8f#\	.	8f#/J 8d/	.	8A\ 8D\	.	8dd/J	8dd\J	.	8f#\J 8A\	.	8f#/J 8d/	.	.	8ff#\J 8dd\	.	8ff#\J	.	.
*	*	*	*	*	*	*	*	*v	*v	*	*	*	*	*	*	*	*	*	*	*	*	*	*	*	*	*	*	*	*	*	*	*	*	*	*	*	*
*	*	*	*	*	*	*	*	*	*	*v	*v	*	*	*	*	*	*	*	*	*	*	*	*	*v	*v	*	*	*	*v	*v	*	*	*	*	*	*
=15	=15	=15	=15	=15	=15	=15	=15	=15	=15	=15	=15	=15	=15	=15	=15	=15	=15	=15	=15	=15	=15	=15	=15	=15	=15	=15	=15	=15	=15	=15	=15	=15	=15
*	*	*	*	*	*	*	*	*	*	*	*	*	*	*	*	*	*	*	*	*	*	*	*	*	*^	*	*	*	*^	*	*	*	*
.	.	.	.	.	.	.	.	(8qff#/	.	.	.	.	.	.	.	.	.	.	8qf#/	.	.	.	.	.	.	.	.	.	.	.	.	.	8qff#/	(8qfff#/	.
8E\L	.	4.ryy	.	8r	.	8ryy	.	16.ee\LL)	.	4.r	.	4.r	8E\	.	8B\	.	8g#X\	.	16.e/LL	.	8d\ 8E\	.	4.ee\ 4.b\	.	4.e/	4.d\	.	4.g#/ 4.d/	.	16.ee/LL	4.b\	.	16.ee\LL	16.eee\LL)	.
.	.	.	.	.	.	.	.	32dd#X'\JJk	.	.	.	.	.	.	.	.	.	.	32d#X/JJk	.	.	.	.	.	.	.	.	.	.	32dd#X/JJk	.	.	32dd#X\JJk	32ddd#X\JJk|	.
8r	.	.	.	8e\L 8d\	.	8g#Xyy/L 8B/yy	.	8ee'\L	.	.	.	.	8r	.	8r	.	8r	.	8e/L	.	8r	.	.	.	.	.	.	.	.	8ee/L	.	.	8ee\L	8eee\L|	.
8E\J	.	.	.	8e\J 8d\	.	8g#yy/J 8B/y	.	8b'\J	.	.	.	.	8E\	.	8B\	.	8g#\	.	8b/J 8B/	.	8d\ 8E\	.	.	.	.	.	.	.	.	8b/J	.	.	8b\J	8bb\J|	.
=16	=16	=16	=16	=16	=16	=16	=16	=16	=16	=16	=16	=16	=16	=16	=16	=16	=16	=16	=16	=16	=16	=16	=16	=16	=16	=16	=16	=16	=16	=16	=16	=16	=16	=16	=16
*	*	*	*	*	*	*	*	*	*	*^	*	*	*	*	*	*	*	*	*	*	*	*	*	*	*	*	*	*	*	*	*	*	*	*	*
!	!	!	!	!	!	!	!	!LO:TUP:a:problem=klamra łukowa	!	!	!	!	!	!	!	!	!	!	!	!LO:TUP:a:problem=klamra łukowa	!	!	!	!	!	!	!	!	!	!	!LO:TUP:a:problem=klamra łukowa	!	!	!LO:TUP:a:problem=klamra łukowa	!	!
16E\	.	4.ryy	.	16e\ 16d\	.	16g#X/ 16B/	.	24b'\LL	.	8r	8ryy	.	8r	16E\	.	16B\	.	16g#X\	.	24b'/LL	.	16d\ 16E\	.	16ee\ 16b\	.	16e/	16d\	.	16g/ 16d/	.	24b/LL	16b\	.	24b'\LL	24bb'\LL	.
.	.	.	.	.	.	.	.	(24dd\	.	.	.	.	.	.	.	.	.	.	.	(24dd/	.	.	.	.	.	.	.	.	.	.	24dd/	.	.	(24dd\	(24ddd\	.
16r	.	.	.	16r	.	16r	.	.	.	.	.	.	.	16r	.	16r	.	16r	.	.	.	16r	.	16r	.	16r	16ryy	.	16r	.	.	16r	.	.	.	.
.	.	.	.	.	.	.	.	24cc#\JJ)	.	.	.	.	.	.	.	.	.	.	.	24cc#/JJ)	.	.	.	.	.	.	.	.	.	.	24cc#/JJ	.	.	24cc#\JJ)	24ccc#\JJ)	.
8A\	.	.	.	8e\ 8A\	.	8a/ 8c#/	.	8a/	.	8G/	8C#\	.	8AA/	8A\ 8AA\	.	8c#\	.	8a\	.	8a/	.	8c#\ 8A\	.	8ee\ 8cc#X\	.	8e/ 8A/	4ryy	.	8a/ 8c#/	.	8a/	8a\	.	8a/	8aa\	.
8r	.	.	.	8r	.	8r	.	8r	.	8r	8ryy	.	8r	8r	.	8r	.	8r	.	8r	.	8r	.	8r	.	8r	.	.	8r	.	8r	8ryy	.	8r	8r	.
*	*	*	*	*	*	*	*	*	*	*v	*v	*	*	*	*	*	*	*	*	*	*	*	*	*	*	*	*	*	*	*	*	*	*	*	*	*
*	*	*	*	*	*	*	*	*	*	*	*	*	*	*	*	*	*	*	*	*	*	*	*	*	*v	*v	*	*	*	*v	*v	*	*	*	*
=17!|:	=17!|:	=17!|:	=17!|:	=17!|:	=17!|:	=17!|:	=17!|:	=17!|:	=17!|:	=17!|:	=17!|:	=17!|:	=17!|:	=17!|:	=17!|:	=17!|:	=17!|:	=17!|:	=17!|:	=17!|:	=17!|:	=17!|:	=17!|:	=17!|:	=17!|:	=17!|:	=17!|:	=17!|:	=17!|:	=17!|:	=17!|:	=17!|:	=17!|:
*>B	*	*	*	*	*	*	*	*	*	*	*	*	*	*	*	*	*	*	*	*	*	*	*	*	*	*	*	*	*	*	*	*	*
*tremolo	*	*	*	*tremolo	*	*tremolo	*	*	*	*	*	*	*	*	*	*	*	*	*	*	*	*	*	*	*	*	*	*	*	*	*	*	*
.	.	(8qA/	.	.	.	.	.	(8qa/	f	.	.	.	.	.	.	.	.	.	(8qa/	.	.	.	.	.	.	.	.	.	.	.	.	.	.
8BB-X/L	f	16.G\LL)	.	8d\L	.	8g/L 8B-X/	.	16.g/LL)	.	8C#/	.	8D/	4.B-X\ 4.BB-X\	f	4.d\	.	4.g\	f	16.g/LL)	.	4.r	.	4.r	.	4.r	.	4.r	.	4.r	.	4.r	4.r	.
.	.	32F#\JJk|	.	.	.	.	.	32f#/JJk|	.	.	.	.	.	.	.	.	.	.	32f#/JJk|	.	.	.	.	.	.	.	.	.	.	.	.	.	.
8BB-/	.	8G\L|	.	8d\	.	8g/ 8B-/	.	8g/L|	.	8r	.	8r	.	.	.	.	.	.	8g/L|	.	.	.	.	.	.	.	.	.	.	.	.	.	.
8BB-/J	.	(16e\L	.	8d\J	.	8g/J 8B-/	.	(16ee/L	.	8C#/	.	8D/	.	.	.	.	.	.	(16ee/L 16e/	.	.	.	.	.	.	.	.	.	.	.	.	.	.
.	.	16d\JJ)	.	.	.	.	.	16dd/JJ)	.	.	.	.	.	.	.	.	.	.	16dd/JJ 16d/)	.	.	.	.	.	.	.	.	.	.	.	.	.	.
*Xtremolo	*	*	*	*Xtremolo	*	*	*	*	*	*	*	*	*	*	*	*	*	*	*	*	*	*	*	*	*	*	*	*	*	*	*	*	*
!!LO:PB:g=original
=18	=18	=18	=18	=18	=18	=18	=18	=18	=18	=18	=18	=18	=18	=18	=18	=18	=18	=18	=18	=18	=18	=18	=18	=18	=18	=18	=18	=18	=18	=18	=18	=18	=18
*	*	*	*	*	*	*	*	*	*	*^	*	*	*	*	*	*	*	*	*	*	*	*	*	*	*	*	*	*	*	*	*	*	*
*	*	*Xtuplet	*	*	*	*	*	*	*	*	*	*	*	*	*	*	*	*	*	*tuplet	*	*	*	*	*	*	*	*	*	*	*	*	*	*
!	!	!LO:TUP:a:problem=klamra łukowa i cyfra	!	!	!	!	!	!LO:TUP:a:problem=klamra łukowa i cyfra	!	!	!	!	!	!	!	!	!	!	!	!LO:TUP:b:problem=klamra łukowa i cyfra	!	!	!	!	!	!	!	!	!	!	!	!	!	!
16AA/	.	24c#\LL	.	16e\ 16c#\	.	16g/ 16A/	.	24cc#\LL	.	16G/	16C#\	.	16AA/	16A\ 16AA\	.	16c#\	.	16g\	.	24cc#/LL 24c#/	.	4.r	.	4.r	.	4.r	.	4.r	.	4.r	.	4.r	4.r	.
.	.	24d\	.	.	.	.	.	24dd\	.	.	.	.	.	.	.	.	.	.	.	24dd/ 24d/	.	.	.	.	.	.	.	.	.	.	.	.	.	.
16r	.	.	.	16r	.	16r	.	.	.	16r	16r	.	16r	16r	.	16r	.	16r	.	.	.	.	.	.	.	.	.	.	.	.	.	.	.	.
.	.	24e\JJ	.	.	.	.	.	24ee\JJ	.	.	.	.	.	.	.	.	.	.	.	24ee/JJ 24e/	.	.	.	.	.	.	.	.	.	.	.	.	.	.
4A^<\	sf	4A\	.	4e\ 4c#\	sf	4g/ 4A/	sf	4a/	.	4G/	4C#\	.	4AA/	4A\ 4AA^<\	.	4c#^<\	.	4g^<\	.	4a/ 4A/	.	.	.	.	.	.	.	.	.	.	.	.	.	.
*	*	*	*	*	*	*	*	*	*	*v	*v	*	*	*	*	*	*	*	*	*	*	*	*	*	*	*	*	*	*	*	*	*	*	*
=19	=19	=19	=19	=19	=19	=19	=19	=19	=19	=19	=19	=19	=19	=19	=19	=19	=19	=19	=19	=19	=19	=19	=19	=19	=19	=19	=19	=19	=19	=19	=19	=19	=19
*^	*	*^	*	*^	*	*^	*	*^	*	*	*	*	*	*	*	*	*	*	*	*	*	*	*^	*	*^	*	*	*	*	*	*	*	*
.	.	.	8qA/	.	.	.	.	.	.	.	.	(8qaa/	.	.	.	.	.	.	.	.	.	.	.	.	.	.	.	.	.	.	.	.	.	8qa/	.	(8qa/	.	(8qaa/	(8qaa/	.
*tremolo	*	*	*	*	*	*tremolo	*	*	*	*	*	*	*	*	*	*	*	*	*	*	*	*	*	*	*	*	*	*tremolo	*tremolo	*	*tremolo	*tremolo	*	*	*	*	*	*	*	*
8B-X\L	4.r	.	16.G/LL	4.r	.	8d\L	4.r	.	8g/L 8B-X/	4.r	.	16.gg/LL)	4.r	.	4.r	.	4.r	4.r	.	4.r	.	4.r	.	4.r	.	8B-X\L 8BB-X\	.	8gg/L	8dd\L	.	8g/L	8d\L	.	16.g/LL	.	16.g/LL)	.	16.gg\LL)	16.gg\LL)	.
.	.	.	32F#/JJk	.	.	.	.	.	.	.	.	32ff#/JJk	.	.	.	.	.	.	.	.	.	.	.	.	.	.	.	.	.	.	.	.	.	32f#/JJk|	.	32f#/JJk	.	32ff#\JJk|	32ff#\JJk|	.
8B-\	.	.	8G/L	.	.	8d\	.	.	8g/ 8B-/	.	.	8gg/L	.	.	.	.	.	.	.	.	.	.	.	.	.	8B-\ 8BB-\	.	8gg/	8dd\	.	8g/	8d\	.	8g'/L	.	8g/L|	.	8gg'\L	8gg'\L	.
8B-\J	.	.	(16e/L	.	.	8d\J	.	.	8g/J 8B-/	.	.	(16eee/L	.	.	.	.	.	.	.	.	.	.	.	.	.	8B-\J 8BB-\	.	8gg/J	8dd\J	.	8g/J	8d\J	.	(16ee/L	.	(16ee/L	.	(16eee\L	(16eee\L	.
.	.	.	16d/JJ)	.	.	.	.	.	.	.	.	16ddd/JJ)	.	.	.	.	.	.	.	.	.	.	.	.	.	.	.	.	.	.	.	.	.	16dd/JJ)	.	16dd/JJ)	.	16ddd\JJ)	16ddd\JJ)	.
*Xtremolo	*	*	*	*	*	*Xtremolo	*	*	*Xtremolo	*	*	*	*	*	*	*	*	*	*	*	*	*	*	*	*	*	*	*Xtremolo	*Xtremolo	*	*Xtremolo	*Xtremolo	*	*	*	*	*	*	*	*
*	*	*	*	*	*	*	*	*	*	*	*	*	*	*	*	*	*	*	*	*	*	*	*	*	*	*	*	*v	*v	*	*	*	*	*	*	*	*	*	*	*
*	*	*	*	*	*	*	*	*	*	*	*	*	*	*	*	*	*	*	*	*	*	*	*	*	*	*	*	*	*	*v	*v	*	*	*	*	*	*	*	*
=20	=20	=20	=20	=20	=20	=20	=20	=20	=20	=20	=20	=20	=20	=20	=20	=20	=20	=20	=20	=20	=20	=20	=20	=20	=20	=20	=20	=20	=20	=20	=20	=20	=20	=20	=20	=20	=20	=20
*	*	*	*	*	*	*	*	*	*	*	*	*Xtuplet	*	*	*	*	*	*	*	*	*	*	*	*	*	*	*	*	*	*	*	*	*	*tuplet	*	*	*	*
!	!	!	!LO:TUP:a:problem=klamra łukowa	!	!	!	!	!	!	!	!	!LO:TUP:a:problem=klamra łukowa	!	!	!	!	!	!	!	!	!	!	!	!	!	!	!	!	!	!	!	!LO:TUP:a:problem=klamra łukowa i cyfra	!	!LO:TUP:b:problem=klamra łukowa i cyfra	!	!LO:TUP:a:problem=klamra łukowa	!LO:TUP:a:problem=klamra łukowa i cyfra	!
16A\	4.r	.	24c#/LL	4.r	.	16e\ 16c#\	4.r	.	16g/ 16A/	4.r	.	24ccc#/LL	4.r	.	4.r	.	4.r	4.r	.	4.r	.	4.r	.	4.r	.	16A\ 16AA\	.	16gg\ 16cc#X\	.	16e/ 16A/	.	24cc#/LL	.	24cc#/LL	.	24ccc#\LL	24ccc#\LL	.
.	.	.	24d/	.	.	.	.	.	.	.	.	24ddd/	.	.	.	.	.	.	.	.	.	.	.	.	.	.	.	.	.	.	.	24dd/	.	24dd/	.	24ddd\	24ddd\	.
16r	.	.	.	.	.	16r	.	.	16r	.	.	.	.	.	.	.	.	.	.	.	.	.	.	.	.	16r	.	16r	.	16r	.	.	.	.	.	.	.	.
.	.	.	24e/JJ	.	.	.	.	.	.	.	.	24eee/JJ	.	.	.	.	.	.	.	.	.	.	.	.	.	.	.	.	.	.	.	24ee/JJ	.	24ee/JJ	.	24eee\JJ	24eee\JJ	.
4A\	.	.	4A/	.	.	4e\ 4c#\	.	.	4g/ 4A/	.	.	4aa/	.	.	.	.	.	.	.	.	.	.	.	.	.	4A\ 4AA\	.	4gg\ 4cc#\	.	4e/ 4A^/	.	4a/	.	4a/	.	4aa\	4aa^^\	.
.	.	.	.	.	.	.	.	.	.	.	.	.	.	.	.	.	.	.	.	.	.	.	.	.	.	.	.	.	.	.	.	.	.	.	f	.	.	f
*v	*v	*	*	*	*	*v	*v	*	*v	*v	*	*v	*v	*	*	*	*	*	*	*	*	*	*	*	*	*	*	*	*	*	*	*	*	*	*	*	*	*
*	*	*v	*v	*	*	*	*	*	*	*	*	*	*	*	*	*	*	*	*	*	*	*	*	*	*	*	*	*	*	*	*	*	*	*
=21	=21	=21	=21	=21	=21	=21	=21	=21	=21	=21	=21	=21	=21	=21	=21	=21	=21	=21	=21	=21	=21	=21	=21	=21	=21	=21	=21	=21	=21	=21	=21	=21	=21
*	*	*	*	*	*	*	*	*	*	*^	*	*	*	*	*	*	*	*	*	*	*	*	*^	*	*	*	*	*	*	*	*	*	*
!	!LO:DY:rj	!	!	!	!	!	!	!	!	!	!	!	!	!	!	!	!LO:DY:rj	!	!LO:DY:rj	!	!LO:DY:rj	!	!	!	!	!	!	!	!	!	!	!	!	!	!
8D\	f	4.ryy	.	16.f#\LL 16.d\	f	16.dd\LL 16.f#\	.	16.ff#\LL 16.a\ 16.d\	f	16G/	4C#\	.	16D/	16A\ 16D\	f	16d\	f	16f#\	f	16.f#/LL 16.d/	f	16A\ 16D\	.	16dd/	16dd\	.	16f#\ 16d\	.	16.f#/LL 16.d/|	.	16.ff#\LL 16.dd\|	.	16.ff#\LL	16.ddd\LL	.
.	.	.	.	.	.	.	.	.	.	16r	.	.	16r	16r	.	16r	.	16r	.	.	.	16r	.	16r	16r	.	16r	.	.	.	.	.	.	.	.
.	.	.	.	32g\JJk 32e\	.	32ee\JK	.	32gg\JJk	.	.	.	.	.	.	.	.	.	.	.	32g/JJk 32e/	.	.	.	.	.	.	.	.	32g/JJk 32e/	.	32gg\JJk 32ee\|	.	32gg\JJk	32eee\JJk	.
*	*	*	*	*	*	*	*	*	*	*tremolo	*	*	*	*	*	*	*	*	*	*	*	*	*	*	*	*	*	*	*	*	*	*	*	*	*
8r	.	.	.	8a\L 8f#\	.	8ff#\	.	8aa\L	.	16G/LL	.	.	8D/L	8A\L 8D\	.	8d\L	.	8f#\L	.	8a/L 8f#/	.	8A\L 8D\	.	8dd/L	8dd\L	.	8f#\L 8d\	.	8a/L 8f#/	.	8aa\L 8ff#\|	.	8aa\L	8fff#\L	.
.	.	.	.	.	.	.	.	.	.	16G/J	.	.	.	.	.	.	.	.	.	.	.	.	.	.	.	.	.	.	.	.	.	.	.	.	.
*	*	*	*	*	*	*	*	*	*	*Xtremolo	*	*	*	*	*	*	*	*	*	*	*	*	*	*	*	*	*	*	*	*	*	*	*	*	*
8D\	.	.	.	8b\J 8g\	.	8gg\J	.	8bb\J	.	8G/J	8r	.	8D/J	8B\J 8D\	.	8d\J	.	8g\J	.	8b/J 8g/	.	8B\J 8D\	.	8dd/J	8dd\J	.	8g\J 8d\	.	8b/J 8g/	.	8bb\J 8gg\|	.	8bb\J	8ggg\J	.
=22	=22	=22	=22	=22	=22	=22	=22	=22	=22	=22	=22	=22	=22	=22	=22	=22	=22	=22	=22	=22	=22	=22	=22	=22	=22	=22	=22	=22	=22	=22	=22	=22	=22	=22	=22
*	*	*	*	*Xtuplet	*	*	*	*	*	*	*	*	*	*	*	*	*	*	*	*	*	*	*	*	*	*	*	*	*	*	*Xtuplet	*	*	*	*
!	!	!	!	!LO:TUP:a:problem=klamra łukowa	!	!	!	!LO:TUP:a:problem=klamra łukowa	!	!	!	!	!	!	!	!	!	!	!	!LO:TUP:a:problem=klamra łukowa	!	!	!	!	!	!	!	!	!LO:TUP:a:problem=klamra łukowa	!	!LO:TUP:a:problem=klamra łukowa	!	!LO:TUP:a:problem=klamra łukowa	!LO:TUP:a:problem=klamra łukowa	!
16D\	.	4.ryy	.	24a\LL 24f#'\	.	24aa\LL 24ff#'\	.	24aa'\LL	.	16G/	16C#\	.	16D/	16A\ 16D\	.	16d\	.	16f#\	.	24a/LL 24f#'/	.	16A\ 16D\	.	16dd/	16dd\	.	16f#\ 16d\	.	24a\LL 24f#'\	.	24aa\LL 24ff#\|	.	24aa\LL|	24fff#\LL|	.
.	.	.	.	(24a\ 24f#\	.	(24aa\ 24ff#\	.	(24fff#\	.	.	.	.	.	.	.	.	.	.	.	(24a/ 24f#/	.	.	.	.	.	.	.	.	(24ff#\ 24a\	.	(24aa\ 24ff#\	.	(24aa\	(24fff#\	.
16r	.	.	.	.	.	.	.	.	.	16r	16r	.	16r	16r	.	16r	.	16r	.	.	.	16r	.	16r	16r	.	16r	.	.	.	.	.	.	.	.
.	.	.	.	24g\JJ 24e\)	.	24gg\JJ 24ee\)	.	24eee\JJ)	.	.	.	.	.	.	.	.	.	.	.	24g/JJ 24e/)	.	.	.	.	.	.	.	.	24ee\JJ 24g\)	.	24gg\JJ 24ee\)	.	24gg\JJ)	24eee\JJ)	.
4d\ 4D^<\	.	.	.	4f#\ 4d^\	.	4ff#\ 4dd^\	.	4ddd^\	.	4G^/	4C#\	.	4D^/	4A\ 4D^\	.	4d^\	.	4f#^\	.	4f#/ 4d^/	.	4A\ 4D^\	.	4dd/	4dd^>\	.	4f#\ 4d^\	.	4dd\ 4f#^\	.	4ff#\ 4dd'^\	.	4ff#^\	4ddd'\	.
*	*	*	*	*	*	*	*	*	*	*v	*v	*	*	*	*	*	*	*	*	*	*	*	*	*v	*v	*	*	*	*	*	*	*	*	*	*
!!LO:PB:g=original
=23	=23	=23	=23	=23	=23	=23	=23	=23	=23	=23	=23	=23	=23	=23	=23	=23	=23	=23	=23	=23	=23	=23	=23	=23	=23	=23	=23	=23	=23	=23	=23	=23	=23
*	*	*	*	*	*	*	*	*	*	*^	*	*	*	*	*	*	*	*	*	*	*	*	*	*	*	*	*^	*	*^	*	*	*	*
*	*	*	*	*	*	*	*	*	*	*	*	*	*	*	*	*	*	*	*	*	*	*	*	*	*	*	*	*	*	*	*	*	*	*tuplet	*	*
!	!	!	!	!	!	!	!	!	!	!	!	!	!	!	!	!	!	!	!	!LO:TUP:a:problem=klamra łukowa i cyfra	!	!	!	!	!	!	!	!	!	!	!	!	!	!	!	!
!LO:TX:a:t=P:mixedbeam:problem	!	!	!	!	!	!	!	!	!LO:TUP:a:problem=klamra łukowa i cyfra	!	!	!	!	!	!	!	!	!	!	!LO:TX:b:i:t=due	!	!	!	!	!	!	!	!LO:TUP:a:problem=klamra łukowa i cyfra	!	!	!LO:TUP:a:problem=klamra łukowa	!	!	!LO:TUP:a:problem=klamra łukowa i cyfra	!	!
8G\L	.	4.ryy	.	8e\L 8B\	.	8g/L 8B/	.	24bb^\LL	.	8r	4ryy	.	8r	8G\ 8GG\	.	8B\	.	8g\	.	24b/LL	.	4.ryy	.	8ee\L 8b\	.	8g\L 8e\	.	24b/LL	8g\L	.	24bb/LL	8ee\L	.	24bb\LL	8r	.
.	.	.	.	.	.	.	.	24ccc#\	.	.	.	.	.	.	.	.	.	.	.	24cc#/	.	.	.	.	.	.	.	24cc#/	.	.	24ccc#/	.	.	24ccc#\	.	.
.	.	.	.	.	.	.	.	24bb\JJ	.	.	.	.	.	.	.	.	.	.	.	24b/JJ	.	.	.	.	.	.	.	24b/JJ	.	.	24bb/JJ	.	.	24bb\JJ	.	.
8A\	.	.	.	8e\ 8c#\	.	8g/ 8A/	.	8aa\L	.	8r	.	.	8r	4A/ 4AA^/	.	8c#\L	.	4g^<\	.	8a/L	.	.	.	8ee\ 8cc#X\	.	8g\ 8e\	.	8a/L	8g\	.	8aa/L	8ee\	.	8aa\L	8r	.
8AA/J	.	.	.	8e\J 8c#\	.	8g/J 8A/	.	8cc#'\J	.	8G/	8C#\	.	8AA/	.	.	8e\J	.	.	.	8c#/J	.	.	.	8ee\J 8cc#\	.	8g\J 8A\	.	8cc#/J	8g\J	.	8cc#/J	8g\J	.	8cc#\J	8ccc#\|	.
*	*	*	*	*	*	*	*	*	*	*	*	*	*	*	*	*	*	*	*	*	*	*	*	*	*	*	*	*v	*v	*	*	*	*	*	*	*
*	*	*	*	*	*	*	*	*	*	*	*	*	*	*	*	*	*	*	*	*	*	*	*	*	*	*	*	*	*	*v	*v	*	*	*	*
=24	=24	=24	=24	=24	=24	=24	=24	=24	=24	=24	=24	=24	=24	=24	=24	=24	=24	=24	=24	=24	=24	=24	=24	=24	=24	=24	=24	=24	=24	=24	=24	=24	=24	=24
*	*	*	*	*	*	*	*	*	*	*	*	*	*	*	*	*	*	*	*	*	*	*	*	*^	*	*	*	*	*	*	*	*	*	*
.	.	.	.	.	.	.	.	(8qee/	.	.	.	.	.	.	.	.	.	.	.	(8qe/	.	.	.	.	.	.	.	.	(8qee/	.	(8qee/	.	(8qee/	(8qeee/	.
*	*	*	*	*	*	*	*	*	*	*tremolo	*	*	*	*	*	*	*	*	*	*	*	*	*	*	*	*	*	*	*	*	*	*	*	*	*
16.D/LL	.	4.ryy	.	16.d\LL	.	16.f#/LL 16.A/	.	16.dd\LL)	.	16G/LL	8C#\L	.	16.D/LL	16.A\LL 16.D\	.	16.d\LL	.	16.f#\LL	.	16.d/LL)	.	4.ryy	.	16.dd\LL	8ryy	.	16.f#/LL 16.d/	.	16.dd/LL 16.f#/)	.	16.dd/LL 16.f#/)	.	16.dd\LL)	16.ddd\LL)	.
.	.	.	.	.	.	.	.	.	.	16G/J	.	.	.	.	.	.	.	.	.	.	.	.	.	.	.	.	.	.	.	.	.	.	.	.	.
*	*	*	*	*	*	*	*	*	*	*Xtremolo	*	*	*	*	*	*	*	*	*	*	*	*	*	*	*	*	*	*	*	*	*	*	*	*	*
32AA/JJk	.	.	.	32e\JJk 32A\	.	32g/JJk 32A/	.	32cc#\JJk|	.	.	.	.	32AA/JJk	32A\JJk 32AA\	.	32c#\JJk	.	32g\JJk|	.	32c#/JJk	.	.	.	32ee\JJk 32cc#X\	.	.	32e/JJk 32A/	.	32cc#/JJk 32g/	.	32cc#/JJk 32g/	.	32cc#\JJk	32ccc#\JJk|	.
8D\	.	.	.	8d\	.	8f#/ 8A/	.	8dd\|	.	8G/J	8C#\J	.	8D/	8A\ 8D\	.	8d\	.	8f#\|	.	8d/	.	.	.	8dd/	8dd\	.	8d/ 8F#/	.	8dd/ 8f#/	.	8dd/ 8f#/	.	8dd\	8ddd\|	.
8r	.	.	.	8r	.	8r	.	8r	.	8r	8r	.	8r	8r	.	8r	.	8r	.	8r	.	.	.	8r	8ryy	.	8r	.	8r	.	8r	.	8r	8r	.
*	*	*	*	*	*	*	*	*	*	*v	*v	*	*	*	*	*	*	*	*	*	*	*	*	*v	*v	*	*	*	*	*	*	*	*	*	*
!!LO:PB:g=original
=25:|!	=25:|!	=25:|!	=25:|!	=25:|!	=25:|!	=25:|!	=25:|!	=25:|!	=25:|!	=25:|!	=25:|!	=25:|!	=25:|!	=25:|!	=25:|!	=25:|!	=25:|!	=25:|!	=25:|!	=25:|!	=25:|!	=25:|!	=25:|!	=25:|!	=25:|!	=25:|!	=25:|!	=25:|!	=25:|!	=25:|!	=25:|!	=25:|!	=25:|!
*>C	*	*	*	*	*	*	*	*	*	*	*	*	*	*	*	*	*	*	*	*	*	*	*	*	*	*	*	*	*	*	*	*	*
*k[cnf#]	*	*k[cnf#]	*	*k[cnf#]	*	*k[cnf#]	*	*k[cnf#]	*	*k[cnf#]	*	*k[cnf#]	*k[cnf#]	*	*k[cnf#]	*	*k[cnf#]	*	*k[cnf#]	*	*k[cnf#]	*	*k[]	*	*k[]	*	*k[f#]	*	*k[cnf#]	*	*k[cnf#]	*k[cnf#]	*
*M3/8	*	*M3/8	*	*M3/8	*	*M3/8	*	*M3/8	*	*M3/8	*	*M3/8	*M3/8	*	*M3/8	*	*M3/8	*	*M3/8	*	*M3/8	*	*M3/8	*	*M3/8	*	*M3/8	*	*M3/8	*	*M3/8	*M3/8	*
!	!	!	!	!	!	!	!	!	!	!	!	!	!	!	!	!	!	!	!	!	!	!	!	!	!	!	!	!	!	!	!	!LO:TX:a:t=Trio.	!
!	!	!	!	!	!	!	!	!	!	!	!	!	!	!	!	!	!	!	!	!	!	!	!LO:SIC:v:t=brak oznaczeń tonacji	!	!LO:SIC:v:t=brak oznaczeń tonacji	!	!	!	!	!	!	!	!
16GG/	.	16.D/LL 16.GG/	.	16.B/LL	.	16.d/LL	.	4.r	.	4.r	.	4.r	4.ryy	.	4.r	.	4.r	.	4.r	.	16.D/LL 16.GG/	.	16.dd\LL 16.b\	.	4.r	.	4.r	.	4.r	.	4.r	4.r	.
16r	.	.	.	.	.	.	.	.	.	.	.	.	.	.	.	.	.	.	.	.	.	.	.	.	.	.	.	.	.	.	.	.	.
.	.	32D/JJk 32GG/	.	32B/JJk	.	32d/JJk	.	.	.	.	.	.	.	.	.	.	.	.	.	.	32D/JJk 32GG/	.	32dd\JJk 32b\	.	.	.	.	.	.	.	.	.	.
8GG/L	.	8E/L 8GG^/	.	8A#X/L	.	8c#X^/L	.	.	.	.	.	.	.	.	.	.	.	.	.	.	8E/L 8GG^/	.	8cc#X\L 8a#X^\	.	.	.	.	.	.	.	.	.	.
8GG/J	.	8D/J 8GG/	.	8B/J	.	8d/J	.	.	.	.	.	.	.	.	.	.	.	.	.	.	8D/J 8GG/	.	8dd\J 8b\	.	.	.	.	.	.	.	.	.	.
=26	=26	=26	=26	=26	=26	=26	=26	=26	=26	=26	=26	=26	=26	=26	=26	=26	=26	=26	=26	=26	=26	=26	=26	=26	=26	=26	=26	=26	=26	=26	=26	=26	=26
*	*	*	*	*	*	*	*	*	*	*	*	*	*	*	*	*	*	*	*	*	*rep	*	*rep	*	*	*	*	*	*	*	*	*	*
16GG/	.	16.D/LL 16.GG/	.	16.B/LL	.	16.d/LL	.	4.r	.	4.r	.	4.r	4.ryy	.	4.r	.	4.r	.	4.r	.	16.D/LL 16.GG/	.	16.dd\LL 16.b\	.	4.r	.	4.r	.	4.r	.	4.r	4.r	.
16r	.	.	.	.	.	.	.	.	.	.	.	.	.	.	.	.	.	.	.	.	.	.	.	.	.	.	.	.	.	.	.	.	.
.	.	32D/JJk 32GG/	.	32B/JJk	.	32d/JJk	.	.	.	.	.	.	.	.	.	.	.	.	.	.	32D/JJk 32GG/	.	32dd\JJk 32b\	.	.	.	.	.	.	.	.	.	.
8GG/L	.	8E/L 8GG^/	.	8A/L	.	8c#X^/L	.	.	.	.	.	.	.	.	.	.	.	.	.	.	8E/L 8GG^/	.	8cc#X\L 8a#X^\	.	.	.	.	.	.	.	.	.	.
8GG/J	.	8D/J 8GG/	.	8B/J	.	8d/J	.	.	.	.	.	.	.	.	.	.	.	.	.	.	8D/J 8GG/	.	8dd\J 8b\	.	.	.	.	.	.	.	.	.	.
*	*	*	*	*	*	*	*	*	*	*	*	*	*	*	*	*	*	*	*	*	*Xrep	*	*Xrep	*	*	*	*	*	*	*	*	*	*
=27	=27	=27	=27	=27	=27	=27	=27	=27	=27	=27	=27	=27	=27	=27	=27	=27	=27	=27	=27	=27	=27	=27	=27	=27	=27	=27	=27	=27	=27	=27	=27	=27	=27
*	*	*	*	*	*	*	*	*	*	*	*	*	*	*	*	*	*	*	*	*	*	*	*	*	*	*	*	*	*^	*	*	*	*
*	*	*tremolo	*	*tremolo	*	*tremolo	*	*	*	*	*	*	*	*	*	*	*	*	*	*	*	*	*	*	*	*	*	*	*	*	*	*	*tuplet	*
!	!	!	!	!	!	!	!	!	!	!	!	!	!	!	!	!	!	!	!	!	!	!	!	!	!	!	!	!	!LO:TUP:a:problem=klamra łukowa i cyfra	!	!	!	!	!
!	!	!	!	!	!	!	!	!	!	!	!	!	!	!	!	!	!	!	!	!	!	!	!	!	!	!	!	!	!LO:TX:b:i:t=2°	!	!	!	!	!
!	!	!	!	!	!	!	!	!	!	!	!	!	!	!	!	!	!	!	!	!	!	!	!	!	!	!	!	!	!LO:TX:a:i:t=1°	!	!	!	!	!
!LO:TX:a:t=P:problem=mixedbeam	!	!	!	!	!	!	!	!LO:TUP:a:problem=klamra łukowa i cyfra	!	!	!	!	!	!	!	!	!	!	!LO:TUP:b:problem=klamra łukowa i cyfra	!	!	!	!	!	!	!	!LO:TUP:a:problem=klamra łukowa	!	!LO:TUP:a:problem=klamra łukowa	!	!	!LO:TUP:a:problem=klamra łukowa i cyfra	!LO:TUP:a:problem=klamra łukowa i cyfra	!
8GG/L	.	8D/L 8GG/	.	8d/L 8G/	.	8d/L 8B/	.	24d/LL	.	4.r	.	4.r	4.ryy	.	4.r	.	4.r	.	24d/LL	.	4.B\ 4.D\ 4.GG\	.	4.dd/ 4.g/	.	4.r	.	24d/LL	.	8rgg	24d/LL	.	24dd\LL	24dd\LL	.
.	.	.	.	.	.	.	.	24e/	.	.	.	.	.	.	.	.	.	.	24e/	.	.	.	.	.	.	.	24e/	.	.	24e/	.	24ee\	24ee\	.
.	.	.	.	.	.	.	.	24f#/JJ	.	.	.	.	.	.	.	.	.	.	24f#/JJ	.	.	.	.	.	.	.	24f#/JJ	.	.	24f#/JJ	.	24ff#\JJ	24ff#\JJ	.
8G\	.	8D/ 8GG/	.	8d/ 8G/	.	8d/ 8B/	.	8g/L	.	.	.	.	.	.	.	.	.	.	8g/L	.	.	.	.	.	.	.	8g/L	.	8rgg	8g/L	.	8gg\L	8gg\L	.
8G\J	.	8D/J 8GG/	.	8d/J 8G/	.	8d/J 8B/	.	8b/J 8g'/	.	.	.	.	.	.	.	.	.	.	8b/J 8g'/	.	.	.	.	.	.	.	8b/J 8g/	.	8gg/	8b'/J	.	8bb'\J	8bb'\J	.
*	*	*Xtremolo	*	*Xtremolo	*	*Xtremolo	*	*	*	*	*	*	*	*	*	*	*	*	*	*	*	*	*	*	*	*	*	*	*	*	*	*	*	*
=28	=28	=28	=28	=28	=28	=28	=28	=28	=28	=28	=28	=28	=28	=28	=28	=28	=28	=28	=28	=28	=28	=28	=28	=28	=28	=28	=28	=28	=28	=28	=28	=28	=28	=28
*	*	*	*	*	*	*	*	*	*	*^	*	*	*^	*	*	*	*	*	*	*	*	*	*^	*	*	*	*^	*	*	*	*	*	*	*
16D\	.	16DD/	.	16d\ 16A\	.	16f#/ 16c/	.	16.ee\LL 16.cc\	.	8r	8ryy	.	8r	8r	8ryy	.	8r	.	8r	.	16.ee\LL 16.cc\|	.	16D/ 16DD/	.	8r	8ryy	.	8r	.	16.ee\LL 16.cc\	8ryy	.	16.ccc/LL	16.ee\LL	.	16.eee\LL	16.eee\LL|	.
16r	.	16r	.	16r	.	16r	.	.	.	.	.	.	.	.	.	.	.	.	.	.	.	.	16r	.	.	.	.	.	.	.	.	.	.	.	.	.	.	.
.	.	.	.	.	.	.	.	32dd\JJk 32b\	.	.	.	.	.	.	.	.	.	.	.	.	32dd\JJk 32b\|	.	.	.	.	.	.	.	.	32dd\JJk 32b\	.	.	32bb/JJk	32dd\JJk	.	32ddd\JJk	32ddd\JJk|	.
4D^<\	.	4A\ 4D^\	.	4d\ 4A^\	.	4f#/ 4c^/	.	4a/ 4f#^/	.	4G/	4D\	.	4D\	4F#^/	4D\	.	4A^<\	.	4d^<\	.	4a/ 4f#^/	.	4D/ 4DD/	.	4dd/	4cc\	.	4d/ 4F#^>/	.	4a^</	4f#\	.	4ff#^/ 4a/|	4ryy	.	4aa^\	4aa\|	.
*	*	*	*	*	*	*	*	*	*	*	*	*	*	*	*	*	*	*	*	*	*	*	*	*	*	*	*	*	*	*v	*v	*	*	*	*	*	*	*
*	*	*	*	*	*	*	*	*	*	*v	*v	*	*	*v	*v	*	*	*	*	*	*	*	*	*	*v	*v	*	*	*	*	*	*v	*v	*	*	*	*
=29	=29	=29	=29	=29	=29	=29	=29	=29	=29	=29	=29	=29	=29	=29	=29	=29	=29	=29	=29	=29	=29	=29	=29	=29	=29	=29	=29	=29	=29	=29	=29	=29	=29
16GG/	.	16.D/LL 16.GG/	.	16.B/LL	.	16.d/LL	.	4.r	.	4.r	.	4.r	4.r	.	4.r	.	4.r	.	4.r	.	16.D/LL 16.GG/	.	16.dd\LL 16.b\	.	4.r	.	4.r	.	4.r	.	4.r	4.r	.
16r	.	.	.	.	.	.	.	.	.	.	.	.	.	.	.	.	.	.	.	.	.	.	.	.	.	.	.	.	.	.	.	.	.
.	.	32D/JJk 32GG/	.	32B/JJk	.	32d/JJk	.	.	.	.	.	.	.	.	.	.	.	.	.	.	32D/JJk 32GG/	.	32dd\JJk 32b\	.	.	.	.	.	.	.	.	.	.
8GG/L	.	8E/L 8GG^/	.	8A#X/L	.	8c#X^>/L	.	.	.	.	.	.	.	.	.	.	.	.	.	.	8E/L 8GG/	.	8cc#X\L 8a#X\	.	.	.	.	.	.	.	.	.	.
8GG/J	.	8D/J 8GG/	.	8B/J	.	8d/J	.	.	.	.	.	.	.	.	.	.	.	.	.	.	8D/J 8GG/	.	8dd\J 8b\	.	.	.	.	.	.	.	.	.	.
=30	=30	=30	=30	=30	=30	=30	=30	=30	=30	=30	=30	=30	=30	=30	=30	=30	=30	=30	=30	=30	=30	=30	=30	=30	=30	=30	=30	=30	=30	=30	=30	=30	=30
*rep	*	*rep	*	*rep	*	*rep	*	*	*	*	*	*	*	*	*	*	*	*	*	*	*rep	*	*rep	*	*	*	*	*	*	*	*	*	*
16GG/	.	16.D/LL 16.GG/	.	16.B/LL	.	16.d/LL	.	4.r	.	4.r	.	4.r	4.r	rfz	4.r	.	4.r	.	4.r	.	16.D/LL 16.GG/	.	16.dd\LL 16.b\	.	4.r	.	4.r	.	4.r	.	4.r	4.r	.
16r	.	.	.	.	.	.	.	.	.	.	.	.	.	.	.	.	.	.	.	.	.	.	.	.	.	.	.	.	.	.	.	.	.
.	.	32D/JJk 32GG/	.	32B/JJk	.	32d/JJk	.	.	.	.	.	.	.	.	.	.	.	.	.	.	32D/JJk 32GG/	.	32dd\JJk 32b\	.	.	.	.	.	.	.	.	.	.
8GG/L	.	8E/L 8GG^/	.	8A#X/L	.	8c#X^>/L	.	.	.	.	.	.	.	.	.	.	.	.	.	.	8E/L 8GG/	.	8cc#X\L 8a#X\	.	.	.	.	.	.	.	.	.	.
8GG/J	.	8D/J 8GG/	.	8B/J	.	8d/J	.	.	.	.	.	.	.	.	.	.	.	.	.	.	8D/J 8GG/	.	8dd\J 8b\	.	.	.	.	.	.	.	.	.	.
*Xrep	*	*Xrep	*	*Xrep	*	*Xrep	*	*	*	*	*	*	*	*	*	*	*	*	*	*	*Xrep	*	*Xrep	*	*	*	*	*	*	*	*	*	*
!!LO:LB:g=original
=31	=31	=31	=31	=31	=31	=31	=31	=31	=31	=31	=31	=31	=31	=31	=31	=31	=31	=31	=31	=31	=31	=31	=31	=31	=31	=31	=31	=31	=31	=31	=31	=31	=31
*	*	*	*	*	*	*	*	*	*	*	*	*	*	*	*	*	*	*	*	*	*	*	*	*	*^	*	*	*	*	*	*	*	*
*tremolo	*	*tremolo	*	*tremolo	*	*tremolo	*	*	*	*	*	*	*	*	*	*	*	*	*	*	*	*	*	*	*	*	*	*	*	*	*	*	*	*
!	!	!	!	!	!	!	!	!LO:TUP:a:problem=klamra łukowa i cyfra	!	!	!	!	!	!	!	!	!	!	!LO:TUP:b:problem=klamra łukowa i cyfra	!	!	!	!	!	!	!	!	!LO:TUP:a:problem=klamra łukowa	!	!	!	!LO:TUP:a:problem=klamra łukowa i cyfra	!LO:TUP:a:problem=klamra łukowa i cyfra	!
8GG/L	.	8D/L 8GG/	.	8d\L 8G\	.	8d/L 8B/	.	24d/LL	.	4.r	.	4.r	4.r	.	4.r	.	4.r	.	24d/LL	.	4B\ 4GG\	.	4dd/ 4g/	.	8r	8ryy	.	24d/LL	.	8r	.	24dd\LL	24dd\LL	.
.	.	.	.	.	.	.	.	24e/	.	.	.	.	.	.	.	.	.	.	24e/	.	.	.	.	.	.	.	.	24e/	.	.	.	24ee\	24ee\	.
.	.	.	.	.	.	.	.	24f#/JJ	.	.	.	.	.	.	.	.	.	.	24f#/JJ	.	.	.	.	.	.	.	.	24f#/JJ	.	.	.	24ff#\JJ	24ff#\JJ	.
8GG/	.	8D/ 8GG/	.	8d\ 8G\	.	8d/ 8B/	.	8g/L	.	.	.	.	.	.	.	.	.	.	8g/L	.	.	.	.	.	8r	8ryy	.	8g/L	.	8r	.	8gg\L	8gg\L	.
8GG/J	.	8D/J 8GG/	.	8d\J 8G\	.	8d/J 8B/	.	8b'/J	.	.	.	.	.	.	.	.	.	.	8b/J	.	8B\ 8GG\	.	8dd/ 8g/	.	8d/	8d\	.	8b/J 8g/	.	8gg\ 8b\	.	8bb'\J	8bb'\J	.
*Xtremolo	*	*Xtremolo	*	*Xtremolo	*	*Xtremolo	*	*	*	*	*	*	*	*	*	*	*	*	*	*	*	*	*	*	*	*	*	*	*	*	*	*	*	*
*	*	*	*	*	*	*	*	*	*	*	*	*	*	*	*	*	*	*	*	*	*	*	*	*	*v	*v	*	*	*	*	*	*	*	*
=32	=32	=32	=32	=32	=32	=32	=32	=32	=32	=32	=32	=32	=32	=32	=32	=32	=32	=32	=32	=32	=32	=32	=32	=32	=32	=32	=32	=32	=32	=32	=32	=32	=32
*	*	*	*	*	*	*	*	*	*	*^	*	*	*^	*	*	*	*	*	*	*	*	*	*	*	*	*^	*	*	*	*	*	*	*
!	!	!	!	!	!	!	!	!LO:TUP:a:problem=klamra łukowa i cyfra	!	!	!	!	!	!	!	!	!	!	!	!	!LO:TUP:b:problem=klamra łukowa i cyfra	!	!	!	!	!	!	!	!	!LO:TUP:a:problem=klamra łukowa	!	!LO:TUP:a:problem=klamra łukowa	!	!LO:TUP:a:problem=klamra łukowa i cyfra	!LO:TUP:a:problem=klamra łukowa i cyfra	!
8AA^/	.	8AA^>/	.	8A/ 8G/	.	8c#X^>/	.	24a/LL	.	8G/	8C\	.	8AA/	8G\ 8AA\	8ryy	.	8A\	.	8c#X^<\	.	24a/LL	.	8A\ 8AA\	.	8cc#X/ 8g/	.	8e/ 8A^/	8ryy	.	24a/LL	.	(24aa\LL 24a\	.	24aa\LL	24aa\LL	.
.	.	.	.	.	.	.	.	24d/	.	.	.	.	.	.	.	.	.	.	.	.	24d/	.	.	.	.	.	.	.	.	24e/	.	24ee\ 24e\	.	24ee\	24ee\	.
.	.	.	.	.	.	.	.	24f#/JJ	.	.	.	.	.	.	.	.	.	.	.	.	24f#/JJ	.	.	.	.	.	.	.	.	24f#/JJ	.	24ff#\JJ 24f#\	.	24ff#\JJ	24ff#\JJ	.
4D^/	.	4D^>/	.	4A/ 4F#/	.	4d^>/	.	4d/	.	4G/	4C\	.	4D/	4F#/	4D\	.	4A\	.	4d^<\	.	4d/	.	4A\ 4D\	.	4dd/ 4f#X/	.	4f#^</	4A\	.	4d/	.	4dd/ 4d/)	.	4dd\	4dd\	.
*	*	*	*	*	*	*	*	*	*	*	*	*	*	*v	*v	*	*	*	*	*	*	*	*	*	*	*	*	*	*	*	*	*	*	*	*	*
=33:|!|:	=33:|!|:	=33:|!|:	=33:|!|:	=33:|!|:	=33:|!|:	=33:|!|:	=33:|!|:	=33:|!|:	=33:|!|:	=33:|!|:	=33:|!|:	=33:|!|:	=33:|!|:	=33:|!|:	=33:|!|:	=33:|!|:	=33:|!|:	=33:|!|:	=33:|!|:	=33:|!|:	=33:|!|:	=33:|!|:	=33:|!|:	=33:|!|:	=33:|!|:	=33:|!|:	=33:|!|:	=33:|!|:	=33:|!|:	=33:|!|:	=33:|!|:	=33:|!|:	=33:|!|:	=33:|!|:	=33:|!|:
*>D	*	*	*	*	*	*	*	*	*	*	*	*	*	*	*	*	*	*	*	*	*	*	*	*	*	*	*	*	*	*	*	*	*	*	*
*	*	*	*	*	*	*	*	*	*	*	*	*	*	*	*	*	*	*	*	*	*	*	*	*^	*	*	*	*	*	*	*	*	*	*	*
*tremolo	*	*	*	*tremolo	*	*	*	*	*	*	*	*	*	*	*	*	*	*	*	*	*	*tremolo	*	*tremolo	*tremolo	*	*tremolo	*tremolo	*	*	*	*	*	*	*	*
!	!	!	!	!	!	!	!LO:DY:rj	!	!LO:DY:rj	!	!	!	!	!	!	!	!	!	!	!	!	!	!LO:DY:rj	!	!	!	!	!	!	!	!	!	!	!	!	!
8D\L	f	4.ryy	f	8f#\L 8c\	f	16.a/LL 16.d/	f	16.cc/LL 16.d/	f	8G/	4C\	.	8r	8r	f	8r	f	8r	f	16.c/LL 16.A/|	.	8A\L 8D\	f	8dd/L	8cc\L	f	8g/L	8e\L	f	16.cc\LL 16.a\	.	16.cc\LL 16.a\|	f	16.cc\LL	16.aa\LL	f
.	.	.	.	.	.	32a/JJk 32d/	.	32cc/JJk 32d/	.	.	.	.	.	.	.	.	.	.	.	32c/JJk 32A/|	.	.	.	.	.	.	.	.	.	32cc\JJk 32a\	.	32cc\JJk 32a\|	.	32cc\JJk	32aa\JJk	.
*	*	*	*	*	*	*	*	*	*	*tremolo	*	*	*	*	*	*	*	*	*	*	*	*	*	*	*	*	*	*	*	*	*	*	*	*	*	*
8D\	.	.	.	8f#\ 8c\	.	8cc/L 8d/	.	8aa/L 8a/ 8d/	.	16G/LL	.	.	8D/L	8F#\L 8D\	.	8c'\L	.	8a^<\L	.	8a/L 8c/|	.	8A\ 8D\	.	8dd/	8cc\	.	8g/	8e\	.	8aa\L 8cc\	.	8aa\L 8cc\|	.	8aa\L	8fff#\L	.
.	.	.	.	.	.	.	.	.	.	16G/J	.	.	.	.	.	.	.	.	.	.	.	.	.	.	.	.	.	.	.	.	.	.	.	.	.	.
*	*	*	*	*	*	*	*	*	*	*Xtremolo	*	*	*	*	*	*	*	*	*	*	*	*	*	*	*	*	*	*	*	*	*	*	*	*	*	*
8D\J	.	.	.	8f#\J 8c\	.	8a/J 8d/	.	8cc/J 8d/	.	8G/J	8r	.	8D/J	8F#\J 8D\	.	8A'\J	.	8A^<\J	.	8c/J 8A/|	.	8A\J 8D\	.	8dd/J	8cc\J	.	8g/J	8e\J	.	8cc\J 8a\	.	8cc\J 8a\|	.	8cc\J	8aa\J	.
*Xtremolo	*	*	*	*	*	*	*	*	*	*	*	*	*	*	*	*	*	*	*	*	*	*	*	*	*	*	*	*	*	*	*	*	*	*	*	*
*	*	*	*	*	*	*	*	*	*	*	*	*	*	*	*	*	*	*	*	*	*	*	*	*v	*v	*	*	*	*	*	*	*	*	*	*	*
*	*	*	*	*	*	*	*	*	*	*v	*v	*	*	*	*	*	*	*	*	*	*	*	*	*	*	*	*v	*v	*	*	*	*	*	*	*
=34	=34	=34	=34	=34	=34	=34	=34	=34	=34	=34	=34	=34	=34	=34	=34	=34	=34	=34	=34	=34	=34	=34	=34	=34	=34	=34	=34	=34	=34	=34	=34	=34	=34
!LO:TX:a:t=P:problem=mixedbeam	!	!	!	!	!	!	!	!	!	!	!	!	!	!	!	!	!	!	!	!	!	!	!	!	!	!	!	!	!	!	!	!	!
8GG/L	.	4.ryy	.	8g\L 8B\	.	16.g/LL	.	16.b\LL|	.	8r	.	8r	8r	.	8r	.	8r	.	16.B/LL 16.G/|	.	8B\L 8G\	.	8dd/L 8g/	.	8g\L 8d\	.	16.b\LL 16.g\	.	16.b\LL 16.g\|	.	16.b\LL	16.gg\LL	.
.	.	.	.	.	.	32cc/JJk	.	32ee\JJk|	.	.	.	.	.	.	.	.	.	.	32e/K 32c/|	.	.	.	.	.	.	.	32ee\K 32cc\	.	32ee\K 32cc\|	.	32ee\K	32ccc\K	.
8G\	.	.	.	8g\ 8B\	.	16.b/LL	.	16.dd\LL|	.	8r	.	8r	8r	.	8r	.	8r	.	16.d/ 16.B/|	.	8B\ 8G\	.	8dd/ 8g/	.	8g\ 8d\	.	16.dd\ 16.b\	.	16.dd\ 16.b\|	.	16.dd\	16.bb\	.
.	.	.	.	.	.	32cc/JJk	.	32aa\JJk|	.	.	.	.	.	.	.	.	.	.	32a/JK 32c/|	.	.	.	.	.	.	.	32aa\JJk 32cc\	.	32aa\JJk 32cc\|	.	32aa\JJk	32fff#\JJk	.
*	*	*	*	*	*	*	*	*	*	*^	*	*	*	*	*	*	*	*	*	*	*	*	*	*	*	*	*	*	*	*	*	*	*
8GG/J	.	.	.	8g\J 8B\	.	8b/	.	8gg\	.	8G/	8C\	.	8D/	8G\ 8GG\	.	8B\	.	8d\	.	8g/J 8B/|	.	8B\J 8G\	.	8dd/J 8g/	.	8g\J 8d\	.	8gg\ 8b\	.	8gg\ 8b\|	.	8gg\	8eee\	.
=35	=35	=35	=35	=35	=35	=35	=35	=35	=35	=35	=35	=35	=35	=35	=35	=35	=35	=35	=35	=35	=35	=35	=35	=35	=35	=35	=35	=35	=35	=35	=35	=35	=35	=35
*	*	*	*	*	*	*	*	*	*	*	*	*	*	*	*	*	*	*	*	*	*	*	*	*^	*	*	*	*	*	*	*	*	*	*
*	*	*	*	*	*	*	*	*	*	*	*	*	*	*	*	*	*	*	*	*	*	*	*	*	*tremolo	*	*	*	*	*	*	*	*	*	*
!LO:TX:a:t=P:problem=mixedbeam	!	!	!	!	!	!	!	!	!	!	!	!	!	!	!	!	!	!	!	!	!	!	!	!	!	!	!	!	!	!	!	!	!	!	!
8C/L	.	4.ryy	.	8g\L 8c\	.	16.cc\LL	.	16.ee\LL	.	8G/L	4C\	.	4.r	16.G\LL 16.C\	.	16.c\LL|	.	16.e\LL|	.	16.c/LL 16.A/|	.	8c\L 8C\	.	8ee/L	8cc\L	.	8g\L 8e\	.	16.ee\LL 16.cc\	.	16.ee\LL 16.cc\|	.	16.ee\LL	16.ccc\LL	.
.	.	.	.	.	.	32cc\JJk	.	32ee\JJk	.	.	.	.	.	32G\JJk 32C\	.	32c\JJk|	.	32e\JJk|	.	32c/JJk 32A/|	.	.	.	.	.	.	.	.	32ee\JJk 32cc\	.	32ee\JJk 32cc\|	.	32ee\JJk	32ccc\JJk	.
*	*	*	*	*	*	*	*	*	*	*tremolo	*	*	*	*	*	*	*	*	*	*	*	*	*	*	*	*	*	*	*	*	*	*	*	*	*
8c\	.	.	.	8g\ 8c\	.	8ee\L	.	8gg\L	.	16G/L	.	.	.	8G\L 8C\	.	8e\L|	.	8g\L|	.	8g/L 8e/|	.	8c\ 8C\	.	8ee/	8cc\	.	8g\ 8e\	.	8gg\L 8ee\	.	8gg\L 8ee\|	.	8gg\L	8eee\L	.
.	.	.	.	.	.	.	.	.	.	16G/JJ	.	.	.	.	.	.	.	.	.	.	.	.	.	.	.	.	.	.	.	.	.	.	.	.	.
*	*	*	*	*	*	*	*	*	*	*Xtremolo	*	*	*	*	*	*	*	*	*	*	*	*	*	*	*	*	*	*	*	*	*	*	*	*	*
8C/J	.	.	.	8g\J 8c\	.	8cc\J	.	8ee\J	.	8G/	8r	.	.	8G\J 8C\	.	8c\J|	.	8e\J|	.	8e/J 8c/|	.	8c\J 8C\	.	8ee/J	8cc\J	.	8g\J 8e\	.	8ee\J 8cc\	.	8ee\J 8cc\|	.	8ee\J	8ccc\J	.
*	*	*	*	*Xtremolo	*	*	*	*	*	*	*	*	*	*	*	*	*	*	*	*Xtremolo	*	*	*	*Xtremolo	*Xtremolo	*	*Xtremolo	*	*Xtremolo	*	*	*	*	*	*
*	*	*	*	*	*	*	*	*	*	*	*	*	*	*	*	*	*	*	*	*	*	*	*	*v	*v	*	*	*	*	*	*	*	*	*	*
=36	=36	=36	=36	=36	=36	=36	=36	=36	=36	=36	=36	=36	=36	=36	=36	=36	=36	=36	=36	=36	=36	=36	=36	=36	=36	=36	=36	=36	=36	=36	=36	=36	=36	=36
.	.	.	.	.	.	(8qcc/	.	8qee/	.	.	.	.	.	.	.	(8qc/	.	(8qe/	.	(8qe/ 8qc/	.	.	.	.	.	.	.	(<8qee/ 8qcc/	.	(<8qee/ 8qcc/	.	(8qee/	(8qccc/	.
16GG/	.	4.ryy	.	16g\ 16B\	.	16.b\LL)	.	16.dd\LL	.	16G/	8C\	.	16D/	16G\ 16GG\	.	16.B\LL)	.	16.d\LL)	.	16.d/LL 16.B/)	.	16B\ 16G\	.	16dd/ 16g/	.	16g\ 16d\	.	16.dd\LL 16.b\)	.	16.dd\LL 16.b\)	.	16.dd\LL)	16.bb\LL)	.
16r	.	.	.	16r	.	.	.	.	.	16r	.	.	16r	16r	.	.	.	.	.	.	.	16r	.	16r	.	16r	.	.	.	.	.	.	.	.
.	.	.	.	.	.	32a#X\JJk	.	32cc#X\JJk|	.	.	.	.	.	.	.	32A#X\JJk|	.	32c#X\JJk|	.	32c#X/JJk 32A#X/	.	.	.	.	.	.	.	32cc#\JJk 32a#X\	.	32cc#X\JJk 32a#X\|	.	32cc#X\JJk|	32aa#X\JJk|	.
4G^<\	.	.	.	4g\ 4B\	.	4b\	.	4dd\|	.	4G/	4C\	.	4D/	4G\ 4GG\	.	4B\|	.	4d\|	.	4d/ 4B/	.	4B\ 4G\	.	4dd/ 4g/	.	4g\ 4d\	.	4dd\ 4b\	.	4dd\ 4b\|	.	4dd\|	4bb\|	.
!!LO:PB:g=original
=37	=37	=37	=37	=37	=37	=37	=37	=37	=37	=37	=37	=37	=37	=37	=37	=37	=37	=37	=37	=37	=37	=37	=37	=37	=37	=37	=37	=37	=37	=37	=37	=37	=37	=37
*	*	*	*	*	*	*	*	*	*	*	*	*	*	*	*	*	*	*	*	*	*	*	*	*^	*	*	*	*	*	*	*	*	*	*
*	*	*	*	*	*	*	*	*	*	*tremolo	*	*	*	*	*	*	*	*	*	*	*	*	*	*	*	*	*	*	*	*	*	*	*	*	*
!	!	!	!	!	!	!	!	!	!	!	!	!	!	!	!	!	!	!	!	!	!	!	!	!	!	!	!	!	!LO:TUP:a:problem=klamra łukowa	!	!	!	!	!	!
!	!	!	!	!	!	!	!	!LO:TUP:a:problem=klamra łukowa z kropką zamiast cyfry	!	!	!	!	!	!	!	!	!	!	!	!	!	!	!	!	!	!	!	!	!LO:TX:b:i:t=due	!	!	!	!LO:TX:a:t=Col Fl.	!LO:TUP:a:problem=klamra łukowa i cyfra	!
8D\	.	4.ryy	.	8d\L 8A\	.	8f#/L 8c/	.	(24cc\LL	.	16G/LL	8r	.	8r	8r	.	8r	.	8r	.	8r	.	8D/ 8DD/	.	8r	8ryy	.	8r	.	(24cc/LL	.	8r	.	24cc\LLyy	24ccc\LL	.
.	.	.	.	.	.	.	.	24dd\	.	.	.	.	.	.	.	.	.	.	.	.	.	.	.	.	.	.	.	.	24dd/	.	.	.	24dd\yy	24ddd\	.
.	.	.	.	.	.	.	.	.	.	16G/	.	.	.	.	.	.	.	.	.	.	.	.	.	.	.	.	.	.	.	.	.	.	.	.	.
.	.	.	.	.	.	.	.	24cc\JJ	.	.	.	.	.	.	.	.	.	.	.	.	.	.	.	.	.	.	.	.	24cc/JJ	.	.	.	24cc\JJyy	24ccc\JJ	.
!	!	!	!	!	!	!	!	!LO:TUP:a:problem=klamra łukowa z kropką zamiast cyfry	!	!	!	!	!	!	!	!	!	!	!	!	!	!	!	!	!	!	!	!	!	!	!	!	!	!LO:TUP:a:problem=klamra łukowa i cyfra	!
8r	.	.	.	8d\ 8A\	.	8f#/ 8c/	.	24b\LL	.	16G/	8r	.	8r	8r	.	8r	.	8r	.	8r	.	8r	.	8dd/L	8cc\L	.	8f#\L 8d\ 8A\	.	24b/LL	.	8r	.	24b/LL<yy	24bb\LL	.
.	.	.	.	.	.	.	.	24a\	.	.	.	.	.	.	.	.	.	.	.	.	.	.	.	.	.	.	.	.	24a/	.	.	.	24a\yy	24aa\	.
.	.	.	.	.	.	.	.	.	.	16G/JJ	.	.	.	.	.	.	.	.	.	.	.	.	.	.	.	.	.	.	.	.	.	.	.	.	.
.	.	.	.	.	.	.	.	24g\JJ	.	.	.	.	.	.	.	.	.	.	.	.	.	.	.	.	.	.	.	.	24g/JJ)	.	.	.	24g/JJyy	24gg\JJ	.
8D\	sf	.	.	8d\J 8A\	.	8f#/J 8c^/	.	8f#^/)|	.	8G/	8C\	.	8D/	8F#\ 8D\	.	8A\	.	8d^<\	.	8a/ 8f#^/	.	8D/ 8DD^/	.	8dd/J	8cc\J	.	8f#\J 8A\	.	8f#^/	.	8ff#\ 8a^<\	.	8f#^\yy|	8ff#^<\|	.
*	*	*	*	*	*	*	*	*	*	*	*	*	*	*	*	*	*	*	*	*	*	*	*	*v	*v	*	*	*	*	*	*	*	*	*	*
=38	=38	=38	=38	=38	=38	=38	=38	=38	=38	=38	=38	=38	=38	=38	=38	=38	=38	=38	=38	=38	=38	=38	=38	=38	=38	=38	=38	=38	=38	=38	=38	=38	=38	=38
*	*	*	*	*	*	*	*	*	*	*	*	*	*	*	*	*	*	*	*	*^	*	*	*	*	*	*	*	*	*	*	*	*	*	*
*	*	*	*	*	*	*	*	*	*	*rep	*rep	*	*	*	*	*	*	*	*	*	*	*	*	*	*	*	*	*	*	*	*	*	*	*	*
!	!	!	!	!	!	!	!	!LO:TUP:a:problem=klamra łukowa z kropką zamiast cyfry	!	!	!	!	!	!	!	!	!	!	!	!	!	!	!	!	!	!	!	!	!LO:TUP:a:problem=klamra łukowa	!	!	!	!	!LO:TUP:a:problem=klamra łukowa i cyfra	!
8GG/	.	4.ryy	.	8d\L 8G\	.	8g/L 8B/	.	(24dd\LL	.	16G/LL	8r	.	8r	8r	.	8r	.	8r	.	8r	8ryy	.	8G/ 8GG/	.	8r	.	8r	.	(24dd\LL	.	8r	.	24dd\LLyy	24ddd\LL	.
.	.	.	.	.	.	.	.	24ee\	.	.	.	.	.	.	.	.	.	.	.	.	.	.	.	.	.	.	.	.	24ee\	.	.	.	24ee\yy	24eee\	.
.	.	.	.	.	.	.	.	.	.	16G/	.	.	.	.	.	.	.	.	.	.	.	.	.	.	.	.	.	.	.	.	.	.	.	.	.
.	.	.	.	.	.	.	.	24dd\JJ	.	.	.	.	.	.	.	.	.	.	.	.	.	.	.	.	.	.	.	.	24dd\JJ	.	.	.	24dd\JJyy	24ddd\JJ	.
!	!	!	!	!	!	!	!	!LO:TUP:a	!	!	!	!	!	!	!	!	!	!	!	!	!	!	!	!	!	!	!	!	!	!	!	!	!	!LO:TUP:a:problem=klamra łukowa i cyfra	!
8r	.	.	.	8d\ 8G\	.	8g/ 8B/	.	24cc\LL	.	16G/	8r	.	8r	8r	.	8r	.	8r	.	8r	8ryy	.	8r	.	8dd/L 8g/	.	8g\L 8B\	.	24cc\LL	.	8r	.	24cc\LLyy	24ccc\LL	.
.	.	.	.	.	.	.	.	24b\	.	.	.	.	.	.	.	.	.	.	.	.	.	.	.	.	.	.	.	.	24b\	.	.	.	24b\yy	24bb\	.
.	.	.	.	.	.	.	.	.	.	16G/JJ	.	.	.	.	.	.	.	.	.	.	.	.	.	.	.	.	.	.	.	.	.	.	.	.	.
.	.	.	.	.	.	.	.	24a\JJ	.	.	.	.	.	.	.	.	.	.	.	.	.	.	.	.	.	.	.	.	24a\JJ	.	.	.	24a\JJyy	24aa\JJ	.
8G\	sf	.	.	8d\J 8G\	.	8g/J 8B^/	.	8g^/)|	.	8G/	8C\	.	8D/	8G\ 8GG\	.	8B\	.	8d^<\	.	8g^</	8g\	.	8G/ 8GG/	.	8dd/J 8g/	.	8g\J 8B\	.	8g^\)	.	8gg\ 8b^<\	.	8g^<\yy|	8gg^<\|	.
.	.	.	.	.	.	.	.	.	f	.	.	.	.	.	.	.	.	.	.	.	.	.	.	.	.	.	.	.	.	.	.	.	.	.	.
*	*	*	*	*	*	*	*	*	*	*Xrep	*Xrep	*	*	*	*	*	*	*	*	*	*	*	*	*	*	*	*	*	*	*	*	*	*	*	*
*	*	*	*	*	*	*	*	*	*	*v	*v	*	*	*	*	*	*	*	*	*v	*v	*	*	*	*	*	*	*	*	*	*	*	*	*	*
=39	=39	=39	=39	=39	=39	=39	=39	=39	=39	=39	=39	=39	=39	=39	=39	=39	=39	=39	=39	=39	=39	=39	=39	=39	=39	=39	=39	=39	=39	=39	=39	=39	=39
!LO:TX:t=1ma	!	!	!	!	!	!	!	!	!	!	!	!	!	!	!	!	!	!	!	!	!	!	!	!	!	!	!	!	!	!	!	!	!
*>D1	*	*	*	*	*	*	*	*	*	*	*	*	*	*	*	*	*	*	*	*	*	*	*	*	*	*	*	*	*	*	*	*	*
*	*	*	*	*	*	*	*	*	*	*	*	*	*	*	*	*	*	*	*	*	*^	*	*^	*	*^	*	*	*	*^	*	*	*	*
!	!LO:DY:rj	!	!	!	!	!	!	!	!	!	!	!	!	!	!	!	!	!	!	!	!	!	!	!	!	!	!	!	!	!	!	!	!	!	!	!	!
16.C/LL	f	4.ryy	.	16.e\LL 16.c\	.	16.e/LL 16.c/	f	(16.ee\LL	.	4.r	.	4.r	8C/	.	8c\	.	16.e\LL	.	16.e/LL	<	16.G/LL	8C\L	.	8ee/	8cc\	.	8e/	8e\	<	16.e/LL	<	16.ee/LL	4.ee\	.	16.ee\LL	4.r	.
32C/JJk	.	.	.	32e\JJk 32c\	.	32f#/JJk 32c/	.	32ff#\JJk	.	.	.	.	.	.	.	.	32f#\JJk	.	32f#/JJk	.	32F#/JJk	.	.	.	.	.	.	.	.	32f#/JJk	.	32ff#/JJk	.	.	32ff#\JJk	.	.
8C/L	.	.	.	8e\L 8c\	.	8g/L 8c/	.	8gg\L	.	.	.	.	4c\ 4C\	.	4e\	.	8g\L	.	8g/L	.	8E/L	8C\J	.	4ee/	4cc\	.	4e/	4e\	.	8g/L	.	8gg/L	.	.	8gg\L	.	.
8C/J	.	.	.	8e\J	.	8a/J 8c/	.	8aa\J	.	.	.	.	.	.	.	.	8f#\J	.	8a/J 8f#/	[	8F#/J	8ryy	.	.	.	.	.	.	.	8a/J	.	8aa/J	.	.	8aa\J	.	.
*	*	*	*	*	*	*	*	*	*	*	*	*	*	*	*	*	*	*	*	*	*v	*v	*	*	*	*	*	*	*	*	*	*	*	*	*	*	*
*	*	*	*	*	*	*	*	*	*	*	*	*	*	*	*	*	*	*	*	*	*	*	*v	*v	*	*	*	*	*	*	*	*	*	*	*	*
=40	=40	=40	=40	=40	=40	=40	=40	=40	=40	=40	=40	=40	=40	=40	=40	=40	=40	=40	=40	=40	=40	=40	=40	=40	=40	=40	=40	=40	=40	=40	=40	=40	=40	=40	=40
*	*	*	*	*	*	*	*	*	*	*^	*	*	*	*	*	*	*	*	*	*	*	*	*	*	*	*	*	*	*	*	*	*	*	*	*
.	.	.	.	.	.	.	.	(8qccc/	.	.	.	.	.	.	.	.	.	.	.	.	.	.	.	.	.	.	.	[	8qcc/	[	8qccc/	.	.	(8qccc/|	.	.
16BB/	.	4.ryy	.	16d#X\	.	16f#/ 16B/	.	16.bb\LL)	.	8r	4ryy	.	8r	16B\ 16BB\	.	16d#X\	.	16f#\	.	16b/ 16f#/	.	16F#\ 16BB\	.	16ff#X\ 16b\	.	16f#/	16d#X\	.	16.b/LL	.	16.bb/LL	16dd#X\	.	16.bb\LL)	4.r	.
16r	.	.	.	16r	.	16r	.	.	.	.	.	.	.	16r	.	16r	.	16r	.	16r	.	16r	.	16r	.	16r	16r	.	.	.	.	16r	.	.	.	.
.	.	.	.	.	.	.	.	32aa#X\JJk|	.	.	.	.	.	.	.	.	.	.	.	.	.	.	.	.	.	.	.	.	32a#X/JJk	.	32aa#X/JJk	.	.	32aa#X\JJk	.	.
8BB^/	.	.	.	8f#\ 8B\	.	8dd#X/ 8f#/ 8B/	.	8bb\)|	.	8r	.	.	8r	8B\ 8BB\	.	8d#\	.	8f#\	.	8b/ 8f#/	.	8F#\ 8BB\	.	8ff#\ 8b\	.	8f#/	8d#\	.	8b/	.	8bb/	8dd#\	.	8bb\	.	.
8r	.	.	.	8r	.	8r	.	8r	.	8G/	8C\	.	8D\	8A\ 8D\	sf	8dn\	sf	8f#\	sf	8dd/ 8f#/	sf	8r	.	8r	.	8r	8r	.	8r	.	8r	8r	.	8r	.	.
*	*	*	*	*	*	*	*	*	*	*	*	*	*	*	*	*	*	*	*	*	*	*	*	*	*	*v	*v	*	*	*	*v	*v	*	*	*	*
!!LO:LB:g=original
=41:|!	=41:|!	=41:|!	=41:|!	=41:|!	=41:|!	=41:|!	=41:|!	=41:|!	=41:|!	=41:|!	=41:|!	=41:|!	=41:|!	=41:|!	=41:|!	=41:|!	=41:|!	=41:|!	=41:|!	=41:|!	=41:|!	=41:|!	=41:|!	=41:|!	=41:|!	=41:|!	=41:|!	=41:|!	=41:|!	=41:|!	=41:|!	=41:|!	=41:|!	=41:|!
!LO:TX:t=2da	!	!	!	!	!	!	!	!	!	!	!	!	!	!	!	!	!	!	!	!	!	!	!	!	!	!	!	!	!	!	!	!	!	!
*>D2	*	*	*	*	*	*	*	*	*	*	*	*	*	*	*	*	*	*	*	*	*	*	*	*	*	*	*	*	*	*	*	*	*	*
*	*	*	*	*	*	*	*	*	*	*	*	*	*	*	*	*	*	*	*	*	*	*^	*	*^	*	*	*	*	*	*	*	*	*	*
*tremolo	*	*	*	*	*	*	*	*	*	*	*	*	*	*	*	*	*	*	*	*	*	*	*	*	*	*	*	*	*	*	*	*	*	*	*	*
!	!	!	!	!	!	!	!	!	!	!	!	!	!	!	!	!	!	!	!	!	!	!	!	!	!	!	!	!	!	!	!	!LO:TUP:a:problem=klamra łukowa	!	!	!	!
!	!	!	!	!	!	!	!	!LO:TUP:a:problem=klamra łukowa	!	!	!	!	!	!	!	!	!	!	!	!	!	!	!	!	!	!	!	!	!	!LO:TUP:a:problem=klamra łukowa	!	!LO:TX:b:i:t=due	!	!LO:TUP:a	!LO:TUP:a	!
8D\L	.	4.r	.	8d/L< 8A/	.	8f#/L 8c/	.	(24a\LL	.	16G/LL	8C\	.	8D\	8D/ 8DD/	.	8A\	.	8f#\	.	4.a/ 4.c/	.	4.A/	4.BB\	.	4.dd/	4.cc\	.	4.f#\ 4.A\	.	(24a\LL	.	(24a\LL	.	24a\LLyy	24aa\LL	.
.	.	.	.	.	.	.	.	24b\	.	.	.	.	.	.	.	.	.	.	.	.	.	.	.	.	.	.	.	.	.	24b\	.	24b\	.	24b\yy	24bb\	.
.	.	.	.	.	.	.	.	.	.	16G/	.	.	.	.	.	.	.	.	.	.	.	.	.	.	.	.	.	.	.	.	.	.	.	.	.	.
.	.	.	.	.	.	.	.	24cc\JJ	.	.	.	.	.	.	.	.	.	.	.	.	.	.	.	.	.	.	.	.	.	24cc\JJ	.	24cc\JJ	.	24cc\JJyy	24ccc\JJ	.
!	!	!	!	!	!	!	!	!LO:TUP:a:problem=klamra łukowa	!	!	!	!	!	!	!	!	!	!	!	!	!	!	!	!	!	!	!	!	!	!LO:TUP:a:problem=klamra łukowa	!	!LO:TUP:a:problem=klamra łukowa	!	!LO:TUP:a	!LO:TUP:a	!
8D\	.	.	.	8d/ 8A/	.	8f#/ 8c/	.	24cc#X\LL	<	16G/	8r	.	8r	8r	.	8r	.	8r	.	.	.	.	.	.	.	.	.	.	.	24cc#\LL	.	24cc#X\LL	.	24cc#X\LLyy	24ccc#X\LL	.
.	.	.	.	.	.	.	.	24dd\	.	.	.	.	.	.	.	.	.	.	.	.	.	.	.	.	.	.	.	.	.	24dd\	.	24dd\	.	24dd\yy	24ddd\	.
.	.	.	.	.	.	.	.	.	.	16G/	.	.	.	.	.	.	.	.	.	.	.	.	.	.	.	.	.	.	.	.	.	.	.	.	.	.
.	.	.	.	.	.	.	.	24dd#X\JJ	.	.	.	.	.	.	.	.	.	.	.	.	.	.	.	.	.	.	.	.	.	24dd#X\JJ	.	24dd#X\JJ	.	24dd#X\JJyy	24ddd#X\JJ	.
!	!	!	!	!	!	!	!	!LO:TUP:a:problem=klamra łukowa	!	!	!	!	!	!	!	!	!	!	!	!	!	!	!	!	!	!	!	!	!	!LO:TUP:a:problem=klamra łukowa	!	!LO:TUP:a:problem=klamra łukowa	!	!LO:TUP:a	!LO:TUP:a	!
8D\J	.	.	.	8d/J 8A/	.	8a/J 8c/	.	24ee\LL	.	16G/	8C\	.	8D\	8D/ 8DD/	.	8A\	.	8a\	.	.	.	.	.	.	.	.	.	.	.	24ee\LL	.	24ee\LL	.	24ee\LLyy	24eee\LL	.
.	.	.	.	.	.	.	.	24ffn\	.	.	.	.	.	.	.	.	.	.	.	.	.	.	.	.	.	.	.	.	.	24ffX\	.	24ffn\	.	24ffn\yy	24fffn\	.
.	.	.	.	.	.	.	.	.	.	16G/JJ	.	.	.	.	.	.	.	.	.	.	.	.	.	.	.	.	.	.	.	.	.	.	.	.	.	.
.	.	.	.	.	.	.	.	24ff#X\JJ	.	.	.	.	.	.	.	.	.	.	.	.	.	.	.	.	.	.	.	.	.	24ff#\JJ	.	24ff#X\JJ	.	24ff#X\JJyy	24fff#X\JJ	.
*Xtremolo	*	*	*	*	*	*	*	*	*	*	*	*	*	*	*	*	*	*	*	*	*	*	*	*	*	*	*	*	*	*	*	*	*	*	*	*
*	*	*	*	*	*	*	*	*	*	*	*	*	*	*	*	*	*	*	*	*	*	*v	*v	*	*	*	*	*	*	*	*	*	*	*	*	*
*	*	*	*	*	*	*	*	*	*	*	*	*	*	*	*	*	*	*	*	*	*	*	*	*v	*v	*	*	*	*	*	*	*	*	*	*
=42	=42	=42	=42	=42	=42	=42	=42	=42	=42	=42	=42	=42	=42	=42	=42	=42	=42	=42	=42	=42	=42	=42	=42	=42	=42	=42	=42	=42	=42	=42	=42	=42	=42	=42
!	!	!	!	!	!	!	!	!LO:TX:a:t=1ma	!	!	!	!	!	!	!	!	!	!	!	!	!	!	!	!	!	!	!	!	!	!	!	!	!	!
16GG/	.	4.r	.	16d\ 16G\	.	16g/ 16B/	.	16gg\)	[	16G/	8C\	.	16D\	16G\ 16GG\	.	16B\	.	16g\	.	16g/ 16B/	.	16B\ 16G\	.	16dd/ 16g/	.	16g\ 16B\	.	16gg\)	.	16gg\)	.	16gg\yy	16ggg\	.
16r	.	.	.	16r	.	16r	.	16r	.	16r	.	.	16r	16r	.	16r	.	16r	.	16r	.	16r	.	16r	.	16r	.	16r	.	16r	.	16ryy	16r	.
8G\	.	.	.	8d\ 8G\	.	8g/ 8B/	.	8g/	.	8G/	8C\	.	8D\	8G\ 8GG\	.	8B\	.	8g\	.	8g/ 8B/	.	8B\ 8G\	.	8dd/ 8g/	.	8g\ 8B\	.	8gg\ 8g\	.	8gg\ 8b\	.	8g\yy	8gg\	.
8r	.	.	.	8r	.	8r	.	8r	.	8r	8r	.	8r	8r	.	8r	.	8r	.	8r	.	8r	.	8r	.	8r	.	8r	.	8r	.	8ryy	8r	.
*	*	*	*	*	*	*	*	*	*	*v	*v	*	*	*	*	*	*	*	*	*	*	*	*	*	*	*	*	*	*	*	*	*	*	*
==	==	==	==	==	==	==	==	==	==	==	==	==	==	==	==	==	==	==	==	==	==	==	==	==	==	==	==	==	==	==	==	==	==
*-	*-	*-	*-	*-	*-	*-	*-	*-	*-	*-	*-	*-	*-	*-	*-	*-	*-	*-	*-	*-	*-	*-	*-	*-	*-	*-	*-	*-	*-	*-	*-	*-	*-
!!!system-decoration: s1,s2,s3,s4[(s5,s6)]s7,s8[(s9,s10,s11)]s12,s13[(s14,s15,s16)][(s17,s18)]
!!!RDF**kern: > = above
!!!RDF**kern: < = below
!!!RDF**kern: | = vertical stroke
!!!EED: Leszek Kubiak
!!!EEV: 2021-05-13
!!!ENC: Anastazja Marusiak
!!!END: 2021-04-30
